<?xml version="1.0" encoding="UTF-8"?>
<map version="1.10" tiledversion="1.11.2" orientation="orthogonal" renderorder="right-down" width="40" height="40" tilewidth="48" tileheight="48" infinite="0" nextlayerid="11" nextobjectid="1">
 <tileset firstgid="1" source="FOREST.tsx"/>
 <tileset firstgid="257" source="FORESTREVERSE.tsx"/>
 <layer id="4" name="Ground" width="40" height="40">
  <data encoding="csv">
82,82,82,82,82,82,82,82,82,82,82,82,82,82,82,82,82,82,82,82,82,82,82,82,82,146,82,82,82,82,82,82,82,82,82,82,82,82,82,82,
82,82,82,82,82,82,82,82,82,82,82,82,82,82,82,82,82,82,82,82,82,82,82,82,82,146,82,82,82,82,82,82,82,82,82,82,82,82,82,82,
82,82,82,82,82,82,82,82,82,82,82,82,82,82,82,82,82,82,82,82,82,82,82,82,82,178,82,82,82,82,82,82,82,82,82,82,82,82,82,82,
82,82,82,82,82,82,82,82,82,82,82,82,82,82,82,82,82,82,82,82,82,82,82,82,82,82,82,82,82,82,82,82,82,82,82,82,82,82,82,82,
82,82,82,82,82,82,82,82,82,82,82,82,82,82,82,82,82,82,82,82,82,82,82,82,82,82,82,82,82,82,82,82,82,82,82,101,180,82,219,82,
82,82,82,82,82,82,82,82,82,82,82,82,82,82,82,82,82,82,82,82,82,82,82,82,82,82,82,82,190,82,82,82,82,82,82,82,82,82,235,82,
82,82,82,82,82,82,82,82,82,82,82,82,82,82,82,82,82,82,82,82,82,82,82,82,219,219,82,219,206,82,82,82,82,82,82,82,82,82,251,82,
82,82,82,82,82,82,82,82,82,82,82,82,82,82,82,82,82,82,82,82,82,82,82,82,235,235,82,235,222,82,82,82,82,82,82,82,82,82,82,82,
82,82,82,82,82,82,82,82,82,82,82,82,82,82,82,82,82,82,82,82,82,82,82,82,82,251,250,251,238,82,82,82,82,82,82,82,82,82,82,82,
82,82,82,82,82,82,82,82,82,82,82,82,82,82,82,82,1,3,4,82,82,82,82,82,82,82,82,131,82,82,82,82,82,82,82,82,82,82,82,82,
82,82,82,82,82,82,82,82,82,82,82,82,82,82,82,82,49,51,52,82,82,82,82,82,82,82,131,118,82,82,82,82,82,82,82,82,82,82,82,82,
82,82,82,82,82,82,82,82,82,82,82,82,82,82,82,82,82,82,82,82,82,82,82,82,82,82,162,146,82,82,82,82,82,82,82,82,82,82,82,82,
82,82,82,82,82,82,82,82,82,82,82,82,82,82,82,82,82,82,82,82,82,82,82,82,82,204,162,146,82,82,82,82,82,82,82,82,82,82,82,82,
82,82,82,82,82,82,82,82,82,1,2,3,4,82,1,4,82,82,82,82,82,82,82,82,82,220,179,146,82,82,82,82,82,82,82,82,82,82,82,82,
82,82,82,82,82,82,82,82,82,33,18,5,52,1,37,52,82,82,82,82,82,82,82,82,82,236,0,146,82,82,82,82,82,82,82,82,82,82,82,82,
82,82,82,82,82,82,82,82,82,49,50,52,82,49,52,0,0,0,0,0,0,0,0,0,82,252,82,146,82,82,82,82,82,82,82,82,82,82,82,82,
82,82,82,82,82,82,82,82,82,82,82,82,82,82,82,82,82,82,82,82,82,82,82,82,82,82,82,146,82,82,82,82,82,82,82,82,82,82,82,82,
82,82,82,82,82,82,82,82,82,82,82,37,82,82,82,82,82,82,82,82,82,82,82,82,82,82,82,177,146,82,82,82,82,82,82,82,82,82,82,82,
82,82,82,82,82,82,82,82,82,82,82,82,82,82,82,252,82,82,82,82,82,82,82,82,82,82,82,82,146,82,82,82,82,82,82,82,82,82,82,82,
82,82,82,82,82,82,82,82,82,82,82,82,82,82,82,219,82,82,82,82,82,82,82,82,82,82,82,82,146,146,82,82,82,82,82,82,82,82,82,82,
82,82,82,82,82,82,82,82,82,82,82,82,82,82,234,235,82,82,82,82,82,82,82,82,82,82,82,82,82,146,146,82,82,82,82,82,82,82,82,82,
82,82,82,82,82,82,82,1,3,2,2,3,4,82,250,251,82,82,82,82,82,82,82,82,82,82,82,82,82,82,146,146,82,82,82,82,82,82,82,82,
219,82,82,82,82,82,1,22,35,34,35,34,36,82,236,82,82,82,82,82,82,82,82,82,82,82,82,82,82,82,82,146,146,82,82,82,82,82,82,82,
235,82,82,82,82,82,49,50,6,35,5,51,52,82,252,82,82,82,1,2,3,2,4,82,82,82,82,82,82,82,82,146,146,146,82,82,82,82,82,82,
251,82,82,82,82,82,82,82,49,50,52,82,82,82,82,82,82,82,33,18,18,19,21,4,82,82,82,82,1,3,4,82,82,146,146,82,146,146,146,146,
82,82,82,82,82,82,82,82,82,82,82,82,82,82,82,82,82,82,49,6,34,35,5,52,82,82,1,3,37,51,52,82,82,82,146,146,146,146,146,146,
82,82,82,82,82,0,0,0,0,0,0,0,0,0,0,82,82,82,82,33,18,19,20,82,82,82,17,5,52,82,1,4,1,4,82,82,82,82,82,82,
82,82,82,82,82,82,82,82,82,82,82,82,82,82,82,82,1,3,4,17,34,35,20,82,82,82,82,52,82,82,49,52,49,38,4,82,82,82,82,1,
82,82,82,82,82,82,82,82,82,82,82,82,82,82,82,1,37,51,52,33,18,19,36,82,1,2,3,2,2,3,4,82,82,49,52,82,1,2,3,22,
82,82,82,82,82,82,82,82,82,82,82,82,82,82,82,49,52,82,1,22,34,35,21,3,22,18,19,35,18,19,21,2,3,2,3,3,22,18,19,18,
2,3,3,4,82,82,82,82,82,82,82,82,82,82,1,3,4,82,17,18,18,19,19,19,18,5,50,6,34,35,18,19,18,19,18,35,18,34,35,18,
18,19,35,21,3,2,4,82,1,2,3,4,82,1,22,18,21,2,22,18,34,35,5,51,51,82,82,49,51,6,34,35,5,50,51,6,34,35,18,18,
34,35,35,35,35,18,21,2,22,18,19,21,3,22,19,34,35,18,19,5,50,51,52,82,82,82,82,82,82,49,50,51,52,82,82,49,50,51,50,6,
19,35,35,5,50,50,6,18,19,5,6,18,19,34,5,50,51,50,51,52,82,82,82,82,82,82,82,82,82,82,82,82,82,82,82,82,82,82,82,49,
35,5,50,52,1,4,49,50,51,52,49,50,50,51,52,82,82,82,82,82,82,82,82,82,82,82,82,82,82,82,82,82,82,82,82,82,82,49,50,82,
50,52,82,82,49,38,3,4,82,82,82,82,82,82,82,82,82,82,82,82,82,82,82,82,82,82,82,82,82,82,82,82,82,82,82,82,82,82,82,82,
82,82,82,82,82,49,51,52,82,82,82,82,82,82,82,82,82,82,82,82,82,82,82,82,82,82,82,82,82,82,82,82,82,82,82,82,82,82,82,82,
82,82,82,82,82,82,82,82,82,82,82,82,82,82,82,82,82,82,82,82,82,82,82,82,82,82,82,82,82,82,82,82,82,82,82,82,82,82,82,82,
82,82,82,82,82,82,82,82,82,82,82,82,82,82,82,82,82,82,82,82,82,82,82,82,82,82,82,82,82,82,82,82,82,82,82,82,82,82,82,82,
82,82,82,82,82,82,82,82,82,82,82,82,82,82,82,82,82,82,82,82,82,82,82,82,82,82,82,82,82,82,82,82,82,82,82,82,82,82,82,82
</data>
 </layer>
 <layer id="6" name="Shadow" width="40" height="40">
  <data encoding="csv">
0,0,0,0,0,0,0,0,0,0,0,0,0,0,0,0,0,0,0,0,0,0,0,0,0,126,0,0,0,0,0,0,0,0,0,0,0,0,0,0,
0,0,0,0,0,0,0,0,0,0,0,0,0,0,0,0,0,0,0,0,0,0,0,0,0,126,0,0,0,0,0,0,0,0,0,0,0,0,0,0,
0,0,0,0,0,0,0,0,0,0,0,0,0,0,0,0,0,0,0,0,0,0,0,0,0,142,0,0,0,0,0,0,0,0,0,0,0,0,0,0,
0,0,0,0,0,0,0,0,0,0,0,0,0,0,0,0,0,0,0,0,0,0,0,0,126,0,0,0,0,0,0,0,0,0,0,0,0,0,0,0,
0,0,0,0,0,0,0,0,0,0,0,0,0,0,0,0,0,0,0,0,0,0,0,0,126,0,0,0,0,0,0,0,0,0,0,0,0,0,0,0,
0,0,0,0,0,0,0,0,0,0,0,0,0,0,0,0,0,0,0,0,0,0,0,0,126,0,0,0,0,0,0,0,0,0,0,0,0,0,0,0,
0,0,0,0,0,0,0,0,0,0,0,0,0,0,0,0,0,0,0,0,0,0,0,0,126,0,0,0,0,0,0,0,0,0,0,0,0,0,0,0,
0,0,0,0,0,0,0,0,0,0,0,0,0,0,0,0,0,0,0,0,0,0,0,0,3221225581,110,0,0,0,0,0,0,0,0,0,0,0,0,0,0,
0,0,0,0,0,0,0,0,0,0,0,0,0,0,0,0,0,0,0,0,0,0,0,0,0,1610612845,110,0,0,0,0,0,0,0,0,0,0,0,0,0,
0,0,0,0,0,0,0,0,0,0,0,0,0,0,0,0,0,0,0,0,0,0,0,0,0,0,126,0,0,0,0,0,0,0,0,0,0,0,0,0,
0,0,0,0,0,0,0,0,0,0,0,0,0,0,0,0,0,0,0,0,0,0,0,0,0,0,126,0,0,0,0,0,0,0,0,0,0,0,0,0,
0,0,0,0,0,0,0,0,0,0,0,0,0,0,0,0,0,0,0,0,0,0,0,0,0,0,126,0,0,0,0,0,0,0,0,0,0,0,0,0,
0,0,0,0,0,0,0,0,0,0,0,0,0,0,0,0,0,0,0,0,0,0,0,0,0,0,126,0,0,0,0,0,0,0,0,0,0,0,0,0,
0,0,0,0,0,0,0,0,0,0,0,0,0,0,0,0,0,0,0,0,0,0,0,0,0,0,142,110,0,0,0,0,0,0,0,0,0,0,0,0,
0,0,0,0,0,0,0,0,0,0,0,0,0,0,0,0,0,0,0,0,0,0,0,0,0,0,0,126,0,0,0,0,0,0,0,0,0,0,0,0,
0,0,0,0,0,0,0,0,0,0,0,0,0,0,0,0,0,0,0,0,0,0,0,0,0,0,0,126,0,0,0,0,0,0,0,0,0,0,0,0,
0,0,0,0,0,0,0,0,0,0,0,0,0,0,0,0,0,0,0,0,0,0,0,0,0,0,0,126,0,0,0,0,0,0,0,0,0,0,0,0,
0,0,0,0,0,0,0,0,0,0,0,0,0,0,0,0,0,0,0,0,0,0,0,0,0,0,0,126,110,0,0,0,0,0,0,0,0,0,0,0,
0,0,0,0,0,0,0,0,0,0,0,0,0,0,0,0,0,0,0,0,0,0,0,0,0,0,0,142,126,0,0,0,0,0,0,0,0,0,0,0,
0,0,0,0,0,0,0,0,0,0,0,0,0,0,0,0,0,0,0,0,0,0,0,0,0,0,0,0,3221225598,110,0,0,0,0,0,0,0,0,0,0,
0,0,0,0,0,0,0,0,0,0,0,0,0,0,0,0,0,0,0,0,0,0,0,0,0,0,0,0,0,3221225598,110,0,0,0,0,0,0,0,0,0,
0,0,0,0,0,0,0,0,0,0,0,0,0,0,0,0,0,0,0,0,0,0,0,0,0,0,0,0,0,0,3221225598,110,0,0,0,0,0,0,0,0,
0,0,0,0,0,0,0,0,0,0,0,0,0,0,0,0,0,0,0,0,0,0,0,0,0,0,0,0,0,0,0,1610612845,110,0,0,0,0,0,0,0,
0,0,0,0,0,0,0,0,0,0,0,0,0,0,0,0,0,0,0,0,0,0,0,0,0,0,0,0,0,0,0,3221225581,1610612845,110,110,0,0,0,0,0,
0,0,0,0,0,0,0,0,0,0,0,0,0,0,0,0,0,0,0,0,0,0,0,0,0,0,0,0,0,0,0,0,0,3221225598,110,0,0,0,0,0,
0,0,0,0,0,0,0,0,0,0,0,0,0,0,0,0,0,0,0,0,0,0,0,0,0,0,0,0,0,0,0,0,0,0,3221225598,109,109,109,109,0,
0,0,0,0,0,0,0,0,0,0,0,0,0,0,0,0,0,0,0,0,0,0,0,0,0,0,0,0,0,0,0,0,0,0,0,0,0,0,0,0,
0,0,0,0,0,0,0,0,0,0,0,0,0,0,0,0,0,0,0,0,0,0,0,0,0,0,0,0,0,0,0,0,0,0,0,0,0,0,0,0,
0,0,0,0,0,0,0,0,0,0,0,0,0,0,0,0,0,0,0,0,0,0,0,0,0,0,0,0,0,0,0,0,0,0,0,0,0,0,0,0,
0,0,0,0,0,0,0,0,0,0,0,0,0,0,0,0,0,0,0,0,0,0,0,0,0,0,0,0,0,0,0,0,0,0,0,0,0,0,0,0,
0,0,0,0,0,0,0,0,0,0,0,0,0,0,0,0,0,0,0,0,0,0,0,0,0,0,0,0,0,0,0,0,0,0,0,0,0,0,0,0,
0,0,0,0,0,0,0,0,0,0,0,0,0,0,0,0,0,0,0,0,0,0,0,0,0,0,0,0,0,0,0,0,0,0,0,0,0,0,0,0,
0,0,0,0,0,0,0,0,0,0,0,0,0,0,0,0,0,0,0,0,0,0,0,0,0,0,0,0,0,0,0,0,0,0,0,0,0,0,0,0,
0,0,0,0,0,0,0,0,0,0,0,0,0,0,0,0,0,0,0,0,0,0,0,0,0,0,0,0,0,0,0,0,0,0,0,0,0,0,0,0,
0,0,0,0,0,0,0,0,0,0,0,0,0,0,0,0,0,0,0,0,0,0,0,0,0,0,0,0,0,0,0,0,0,0,0,0,0,0,0,0,
0,0,0,0,0,0,0,0,0,0,0,0,0,0,0,0,0,0,0,0,0,0,0,0,0,0,0,0,0,0,0,0,0,0,0,0,0,0,0,0,
0,0,0,0,0,0,0,0,0,0,0,0,0,0,0,0,0,0,0,0,0,0,0,0,0,0,0,0,0,0,0,0,0,0,0,0,0,0,0,0,
0,0,0,0,0,0,0,0,0,0,0,0,0,0,0,0,0,0,0,0,0,0,0,0,0,0,0,0,0,0,0,0,0,0,0,0,0,0,0,0,
0,0,0,0,0,0,0,0,0,0,0,0,0,0,0,0,0,0,0,0,0,0,0,0,0,0,0,0,0,0,0,0,0,0,0,0,0,0,0,0,
0,0,0,0,0,0,0,0,0,0,0,0,0,0,0,0,0,0,0,0,0,0,0,0,0,0,0,0,0,0,0,0,0,0,0,0,0,0,0,0
</data>
 </layer>
 <layer id="1" name="Valley&amp;water" width="40" height="40">
  <data encoding="csv">
0,0,0,0,204,205,0,100,0,0,0,81,0,0,0,0,0,0,0,0,0,0,0,0,84,189,146,146,146,146,146,229,165,181,181,146,146,101,180,0,
0,0,0,204,220,221,0,84,0,0,65,70,0,0,0,0,0,0,0,0,0,0,0,0,100,173,213,146,146,165,444,444,444,444,181,146,101,180,0,0,
204,218,219,220,236,237,0,100,0,0,81,0,0,0,0,0,0,0,0,0,0,0,0,53,116,189,178,102,146,460,444,181,181,181,197,146,148,0,0,0,
220,234,235,236,252,0,53,116,0,0,97,0,0,0,0,0,0,0,0,0,0,0,0,100,53,116,0,177,102,146,444,181,181,197,146,213,164,0,0,204,
236,250,251,252,0,0,100,0,0,0,97,0,0,0,0,0,0,0,0,0,0,0,0,100,189,0,0,0,145,146,460,444,197,146,146,0,180,0,173,220,
252,0,0,0,53,114,116,0,0,0,81,0,0,0,0,0,0,0,0,0,0,0,0,100,189,0,0,0,174,146,146,146,146,146,101,180,0,0,189,236,
0,0,53,115,116,0,0,0,0,0,97,0,0,0,0,0,0,0,0,0,0,0,0,100,189,0,218,0,206,146,146,146,146,192,180,0,0,204,205,252,
115,115,116,0,0,0,0,0,0,0,113,54,0,0,0,0,0,0,0,0,0,0,0,84,156,157,234,0,222,146,146,146,146,208,201,0,204,220,221,129,
0,0,0,0,0,0,0,0,0,0,0,97,0,0,0,0,0,0,0,0,0,0,0,100,0,156,157,0,238,146,146,146,146,224,217,218,220,236,237,145,
0,0,0,0,0,0,0,0,0,0,0,113,54,0,0,0,0,0,0,0,0,0,53,116,0,0,189,173,118,146,146,146,213,240,233,234,236,252,129,118,
0,0,0,0,0,0,0,0,0,0,0,0,113,114,54,0,0,0,0,53,114,115,116,0,0,0,173,0,165,149,149,149,146,256,249,250,252,129,118,146,
0,0,0,0,0,0,0,0,0,0,0,0,0,0,113,54,0,0,0,100,0,0,0,0,0,0,189,229,149,149,149,149,149,117,132,0,129,118,146,165,
0,0,0,0,0,0,0,0,0,0,0,0,0,0,0,113,241,242,243,116,0,0,0,0,0,204,205,146,149,149,229,149,149,146,117,131,118,146,165,444,
0,0,0,0,0,0,0,0,0,0,0,0,0,0,0,0,0,0,0,0,0,0,0,0,0,189,221,157,149,165,181,181,428,146,213,146,146,165,444,444,
0,0,0,0,0,0,0,0,0,0,0,0,0,0,0,0,0,0,0,0,0,0,0,0,204,205,237,189,165,181,444,444,444,428,146,165,444,444,444,444,
0,0,0,0,0,0,0,0,0,0,0,0,0,0,0,204,218,219,218,219,218,219,218,219,220,221,0,173,444,197,149,163,460,197,146,460,444,444,444,197,
0,0,0,0,0,0,0,0,0,0,0,0,204,218,219,220,234,235,234,235,234,235,234,235,236,237,0,189,146,146,101,179,102,146,146,146,460,181,197,146,
0,0,0,0,0,0,0,204,219,241,242,243,220,234,235,236,250,251,250,251,250,251,250,251,252,253,204,205,157,162,148,0,145,146,101,102,146,146,146,146,
219,201,0,0,0,0,204,220,235,241,242,243,236,250,251,0,0,0,0,0,0,0,0,0,204,218,220,221,173,146,117,130,118,146,117,133,178,179,102,146,
235,217,219,218,219,219,220,236,251,241,242,243,252,253,0,204,218,219,218,219,218,219,218,219,220,234,236,237,156,157,149,146,146,229,146,148,82,82,145,146,
251,233,235,234,235,235,236,252,0,0,0,0,0,0,461,205,234,235,234,235,234,235,234,235,236,250,252,0,0,156,157,162,213,146,146,117,132,82,161,146,
0,249,251,250,251,251,252,0,0,0,0,0,0,0,493,461,250,251,250,251,250,251,250,251,252,0,0,0,0,0,156,157,146,101,179,102,117,186,118,146,
219,201,0,0,0,0,0,0,0,0,0,0,0,0,493,493,461,0,0,0,0,0,0,0,0,0,0,0,0,0,0,173,0,117,131,118,146,146,146,146,
235,217,219,201,0,0,0,0,0,0,0,0,0,204,509,493,493,0,0,0,0,0,0,0,0,0,0,0,0,0,0,156,138,157,229,146,146,146,213,146,
251,233,235,217,201,0,0,0,0,0,0,0,204,220,220,509,493,0,0,0,0,0,0,0,0,0,0,0,0,0,0,0,0,156,157,146,146,146,146,137,
248,249,251,233,217,218,219,218,219,218,219,218,220,236,236,236,509,0,0,0,0,0,0,0,0,0,0,0,0,0,0,0,0,0,156,138,139,138,139,153,
0,0,0,249,233,234,235,234,235,234,235,234,236,251,251,252,0,0,0,0,0,0,0,0,0,0,0,0,0,0,0,0,0,0,0,0,0,0,0,0,
1,4,0,0,249,250,251,250,251,250,251,250,252,0,0,0,0,0,0,0,0,0,0,0,0,0,0,0,0,0,0,0,0,0,0,0,0,0,0,0,
49,52,0,0,0,0,0,0,0,0,0,0,0,0,0,0,0,0,0,0,0,0,0,0,0,0,0,0,0,0,0,0,0,0,0,0,0,0,0,0,
0,0,0,0,0,0,0,0,0,0,0,0,0,0,0,0,0,0,0,0,0,0,0,0,0,0,0,0,0,0,0,0,0,0,0,0,0,0,0,0,
0,0,0,0,0,0,0,0,0,0,0,0,0,0,0,0,0,0,0,0,0,0,0,0,0,0,0,0,0,0,0,0,0,0,0,0,0,0,0,0,
0,0,0,0,0,0,0,0,0,0,0,0,0,0,0,0,0,0,0,0,0,0,0,0,0,0,0,0,0,0,0,0,0,0,0,0,0,0,0,0,
0,0,0,0,0,0,0,0,0,0,0,0,0,0,0,0,0,0,0,0,0,0,0,0,0,0,0,0,0,0,0,0,0,0,0,0,0,0,0,0,
0,0,0,0,0,0,0,0,0,0,0,0,0,0,0,0,0,0,0,0,0,0,0,0,0,0,0,0,0,0,0,0,0,0,0,0,0,0,0,0,
0,0,0,0,0,136,0,0,0,0,0,0,0,0,0,0,0,0,0,0,0,0,0,0,204,218,219,201,0,0,0,0,204,218,219,218,219,218,201,0,
0,0,1,4,0,0,0,0,0,0,0,0,0,0,0,0,0,0,0,0,0,0,204,218,220,234,235,217,218,219,218,219,220,234,235,234,235,234,217,218,
0,0,49,52,0,0,0,0,0,0,0,0,0,0,0,0,0,0,0,0,0,204,220,234,236,250,251,233,234,235,234,235,236,250,251,250,251,250,233,234,
0,0,0,0,0,0,0,0,204,218,219,218,219,201,0,0,0,0,0,0,204,220,236,250,252,0,0,249,250,251,250,251,252,129,130,131,130,132,249,250,
0,0,0,204,218,219,218,219,220,234,235,234,235,217,218,219,201,0,0,204,220,236,252,0,0,129,130,131,131,131,131,131,131,118,146,146,146,117,132,0,
0,0,204,220,234,235,234,235,236,250,251,250,251,233,234,235,217,218,219,220,236,252,0,129,130,118,146,146,146,146,146,146,146,146,146,146,146,146,117,131
</data>
 </layer>
 <layer id="8" name="Decorations" width="40" height="40">
  <data encoding="csv">
91,87,88,0,0,0,27,0,0,0,0,0,0,0,0,0,0,0,0,0,0,0,0,0,0,0,0,0,0,0,0,0,0,0,0,0,0,0,0,0,
0,103,104,0,0,0,0,0,0,0,0,0,0,0,0,0,0,0,0,0,0,0,0,0,0,0,0,0,0,0,0,0,0,0,0,0,0,0,0,0,
0,0,0,0,0,0,0,0,0,0,0,0,0,0,0,0,0,0,0,0,0,0,0,0,0,0,262,0,0,0,0,0,0,0,0,0,0,0,0,0,
0,0,0,0,0,107,0,0,0,0,0,0,0,0,0,0,0,0,0,0,0,0,0,0,0,0,278,0,0,0,0,0,0,0,0,0,0,0,0,0,
0,0,0,0,0,0,0,0,0,0,0,0,0,0,0,0,0,0,0,0,0,0,0,0,0,0,0,0,0,0,0,0,0,0,0,0,0,0,0,0,
0,89,90,0,0,0,0,0,0,0,0,0,0,0,0,0,0,0,0,0,0,0,0,0,0,0,0,0,0,0,0,0,0,0,0,0,0,0,0,0,
0,105,0,0,0,0,0,0,0,0,0,0,0,0,0,0,0,0,0,0,0,0,0,0,0,0,0,0,0,0,0,0,0,0,0,0,0,0,0,0,
0,0,0,0,0,0,0,0,0,0,0,0,0,0,0,0,0,0,0,0,0,0,0,0,0,0,0,0,0,0,0,0,0,0,0,89,0,0,0,0,
0,0,0,0,0,0,0,0,0,0,0,0,0,0,0,0,0,0,0,0,0,0,0,0,43,0,0,0,0,0,0,0,0,0,0,0,0,0,0,0,
0,0,0,0,0,0,0,0,0,0,0,0,0,0,0,0,0,0,0,0,0,0,0,0,0,0,0,0,0,0,0,0,0,0,0,0,0,0,0,0,
0,0,0,0,0,0,0,0,0,0,0,0,0,0,0,0,0,0,0,0,0,0,0,0,0,0,0,0,0,0,0,0,0,0,0,0,0,0,0,0,
0,0,0,0,0,0,0,0,0,0,0,0,0,0,0,0,0,0,0,0,0,0,0,0,0,0,0,0,0,0,0,0,0,0,0,90,0,0,0,0,
0,0,0,0,0,0,0,0,0,0,0,0,0,0,0,0,0,0,0,0,0,0,0,0,0,0,0,0,0,0,0,0,0,0,0,0,0,0,0,0,
0,0,0,0,0,0,0,0,0,0,0,0,0,0,0,0,0,0,0,0,0,0,0,0,0,0,0,0,0,0,0,0,0,0,0,0,0,0,0,0,
0,0,0,0,0,0,0,0,0,0,0,0,0,0,0,0,0,0,0,0,0,0,0,0,0,0,0,0,0,0,0,0,0,0,0,0,0,0,0,0,
0,0,0,0,0,0,0,0,0,0,0,0,0,0,0,0,0,0,0,0,0,0,0,0,0,0,89,0,0,0,0,0,0,0,0,0,0,0,0,0,
0,0,0,0,0,0,0,0,0,0,0,0,0,0,0,0,0,0,0,0,0,0,0,0,0,0,0,0,0,0,0,0,0,0,0,0,0,0,0,0,
360,0,0,0,0,0,0,0,0,0,0,0,0,0,0,0,11,0,0,0,0,0,0,0,0,0,0,0,0,0,0,43,0,0,0,0,0,0,0,0,
0,0,0,0,0,0,0,0,0,0,0,0,0,0,0,0,27,0,0,0,0,0,0,90,0,0,0,0,0,0,0,0,0,0,0,0,0,0,0,0,
0,0,0,0,0,0,0,0,11,0,0,0,0,0,0,0,0,0,0,0,0,0,0,0,0,0,0,0,0,0,0,0,0,0,0,0,90,89,0,0,
0,0,0,0,0,0,0,0,27,0,0,0,0,0,0,0,0,0,0,0,0,0,0,0,0,0,0,0,0,0,0,0,0,0,0,0,0,0,0,0,
105,0,0,0,0,0,0,0,0,0,0,0,0,0,0,0,0,0,0,0,0,0,0,9,10,107,0,0,0,0,0,0,0,0,0,0,0,0,0,0,
0,0,0,0,0,0,0,0,0,0,0,0,0,0,0,0,0,0,0,0,0,0,0,25,26,0,0,0,87,88,0,0,0,0,0,0,0,0,0,0,
0,0,0,0,106,0,0,0,0,0,0,0,0,0,0,0,0,0,0,0,0,0,0,0,0,0,0,0,103,104,0,0,0,0,0,0,0,0,0,0,
0,0,0,0,0,0,0,90,0,0,0,107,0,0,0,0,0,0,0,0,0,0,0,0,0,91,0,0,0,0,0,0,0,0,0,0,0,0,0,0,
90,0,0,0,0,0,0,0,0,0,0,0,0,0,0,0,0,0,0,0,0,0,0,0,0,0,0,0,0,0,0,0,0,0,0,0,0,0,0,0,
0,0,0,0,0,0,0,0,0,0,0,0,0,0,11,0,106,0,0,0,0,0,0,105,0,0,0,0,0,0,0,0,0,0,0,0,0,0,0,0,
0,0,0,0,0,90,0,0,0,0,0,0,0,0,27,91,0,0,0,0,0,0,0,0,0,0,0,0,0,0,0,0,0,0,0,0,0,0,0,0,
0,0,0,0,0,0,0,0,0,0,0,0,0,0,0,0,0,0,0,0,0,0,0,0,0,0,0,0,0,0,0,0,0,0,0,0,0,0,0,0,
0,0,0,0,0,0,0,0,0,0,0,0,0,0,0,0,0,0,0,0,0,0,0,0,0,0,0,0,0,0,0,0,0,0,0,0,0,0,0,0,
0,0,0,0,0,0,0,0,0,0,0,0,0,0,0,0,0,0,0,0,0,0,0,0,0,0,0,0,0,0,0,0,0,0,0,0,0,0,0,0,
0,0,0,0,0,0,0,0,0,0,0,0,0,0,0,0,0,0,0,0,0,0,0,0,0,0,0,0,0,0,0,0,0,0,0,0,0,0,0,0,
0,0,0,0,0,0,0,0,0,0,0,0,0,0,0,0,0,0,0,0,0,0,0,0,0,0,0,0,0,0,0,0,0,0,0,0,0,0,0,0,
0,0,0,0,0,0,0,0,0,0,0,0,0,0,0,0,0,0,0,0,0,0,0,0,0,0,0,0,0,0,0,0,0,0,0,0,0,0,0,0,
0,0,0,0,0,0,0,0,0,0,0,0,0,0,0,0,0,0,0,0,0,0,0,0,0,0,0,0,0,0,0,0,0,0,0,0,0,0,0,0,
0,0,0,0,0,0,0,0,0,0,0,0,0,0,0,0,0,0,0,0,0,0,0,0,0,0,0,0,0,0,0,0,0,0,0,0,0,0,0,0,
0,0,0,0,0,0,0,0,0,0,0,0,0,0,0,0,0,0,0,0,0,0,0,0,0,0,0,0,0,0,0,0,0,0,0,0,0,0,0,0,
0,0,0,0,0,0,0,0,0,0,0,0,0,0,0,0,0,0,0,0,0,0,0,0,0,0,89,0,0,0,0,0,0,0,0,0,0,0,0,0,
0,0,0,0,0,0,0,0,0,0,0,0,0,0,0,0,0,0,0,0,0,0,0,0,0,0,0,0,0,0,0,0,0,0,0,0,0,0,0,91,
0,0,0,0,0,0,0,0,0,0,0,0,0,0,0,0,0,0,0,0,0,0,90,0,0,0,0,0,0,0,0,0,0,0,0,0,0,0,0,0
</data>
 </layer>
 <layer id="10" name="tree" width="40" height="40">
  <data encoding="csv">
0,0,0,0,0,0,0,0,0,0,0,0,0,0,0,0,0,0,0,0,0,0,0,0,0,0,0,0,0,0,0,0,0,0,0,0,0,0,0,0,
0,0,0,0,0,0,0,0,0,0,0,0,0,0,0,0,0,0,0,0,0,0,0,0,0,0,0,0,0,0,0,0,0,0,0,0,0,0,0,0,
0,0,0,0,0,0,0,0,0,0,0,0,0,0,0,0,0,0,0,0,0,0,0,0,0,0,0,0,0,0,0,0,0,0,0,0,0,0,0,0,
0,0,0,0,0,0,0,0,0,0,0,0,0,0,0,0,0,0,0,0,0,0,0,0,0,0,0,0,0,0,0,0,0,0,0,0,0,0,0,0,
0,0,0,0,0,0,0,0,0,0,0,0,0,0,0,0,0,0,0,0,0,0,0,0,0,0,0,0,0,0,0,0,0,0,0,0,0,0,0,0,
0,0,0,0,0,0,0,0,0,0,0,0,0,0,0,0,0,0,0,0,0,0,0,0,0,0,0,0,0,0,0,0,0,0,0,0,0,0,0,0,
0,0,0,0,0,0,0,0,0,0,0,0,0,0,0,0,0,0,0,0,0,0,0,0,0,0,0,0,0,0,0,0,0,0,0,0,0,0,0,0,
0,0,0,0,0,0,0,0,0,0,0,0,0,0,0,0,0,0,0,0,0,0,0,0,0,0,0,0,0,0,0,0,0,0,0,0,0,0,0,0,
0,0,0,0,0,0,0,0,0,0,0,0,0,0,0,0,0,0,0,0,0,0,0,0,0,0,0,0,0,0,0,0,0,0,0,0,0,0,0,0,
0,0,0,0,0,0,0,0,0,0,0,0,0,0,0,0,0,0,0,0,0,0,0,0,0,0,0,0,0,0,0,0,0,0,0,0,0,0,0,0,
0,0,0,0,0,0,0,0,0,0,0,0,0,0,0,0,0,0,0,0,0,0,0,0,0,0,0,0,0,0,0,0,0,0,0,0,0,0,0,0,
0,0,0,0,0,0,0,0,0,0,0,0,0,0,0,0,0,0,0,0,0,0,0,0,0,0,0,0,0,0,0,0,0,0,0,0,0,0,0,0,
0,0,0,0,0,0,0,0,0,0,0,0,0,0,0,0,0,0,0,0,0,0,0,0,0,0,0,0,0,0,0,0,0,0,0,0,0,0,0,0,
0,0,0,0,0,0,0,0,0,0,0,0,0,0,0,0,0,0,0,0,0,0,0,0,0,0,0,0,0,0,0,0,0,0,0,0,0,0,0,0,
0,0,0,0,0,0,0,0,0,0,0,0,0,0,0,0,0,0,0,0,0,0,0,0,0,0,0,0,0,0,0,0,0,0,0,0,0,0,0,0,
0,0,0,0,0,0,0,0,0,0,0,0,0,0,0,0,0,0,0,0,0,0,0,0,0,0,0,0,0,0,0,0,0,0,0,0,0,0,0,0,
0,0,0,0,0,0,0,0,0,0,0,0,0,0,0,0,0,0,0,0,0,0,0,0,0,0,0,0,0,0,0,0,0,0,0,0,0,0,0,0,
0,0,0,0,0,0,0,0,0,0,0,0,0,0,0,0,0,0,0,0,0,0,0,0,0,0,0,0,0,0,0,0,0,0,0,0,0,0,0,0,
0,0,0,0,0,0,0,0,0,0,0,0,0,0,0,0,0,0,0,0,0,0,0,0,0,0,0,0,0,0,0,0,0,0,0,0,0,0,0,0,
0,0,0,0,0,0,0,0,0,0,0,0,0,0,0,0,0,0,0,0,0,0,0,0,0,0,0,0,0,0,0,0,0,0,0,0,0,0,0,0,
0,0,0,0,0,0,0,0,0,0,0,0,0,0,0,0,0,0,0,0,0,0,0,0,0,0,0,0,0,0,0,0,0,0,0,0,0,0,0,0,
0,0,0,0,0,0,0,0,0,0,0,0,0,0,0,0,0,0,0,0,0,0,0,0,0,0,0,0,0,0,0,0,0,0,0,0,0,0,0,0,
0,0,0,0,0,0,0,0,0,0,0,0,0,0,0,0,0,0,0,0,0,0,0,0,0,0,0,0,0,0,0,0,0,0,0,0,0,0,0,0,
0,0,0,0,0,0,0,0,0,0,0,0,0,0,0,0,0,0,0,0,0,0,0,0,0,0,0,0,0,0,0,0,0,0,0,0,0,0,0,0,
0,0,0,0,0,0,0,0,0,0,0,0,0,0,0,0,0,0,0,0,0,0,0,0,0,0,0,0,0,0,0,0,0,0,0,0,0,0,0,0,
0,0,0,0,0,0,0,0,0,0,0,0,0,0,0,0,0,0,0,0,0,0,0,0,0,0,0,0,0,0,0,0,0,0,0,0,0,0,0,0,
0,0,0,0,0,0,0,0,0,0,0,0,0,0,0,0,0,0,0,0,0,0,0,0,0,0,0,0,0,0,0,0,0,0,0,0,0,0,0,0,
0,0,0,0,0,0,0,0,0,0,0,0,0,0,0,0,0,0,0,0,0,0,0,0,0,0,0,0,0,0,0,0,0,0,0,0,0,0,0,0,
0,0,0,0,0,0,0,0,0,0,0,0,0,0,0,0,0,0,0,0,0,0,0,0,0,0,0,0,0,0,0,0,0,0,0,0,0,0,0,0,
0,0,0,0,0,0,0,0,0,0,0,0,0,0,0,0,0,0,0,0,0,0,0,0,0,0,0,0,0,0,0,0,0,0,0,0,0,0,0,0,
0,0,0,0,0,0,0,0,0,0,0,0,0,0,0,0,0,0,0,0,0,0,0,0,0,0,0,0,0,0,0,0,0,0,0,0,0,0,0,0,
0,0,0,0,0,0,0,0,0,0,0,0,0,0,0,0,0,0,0,0,0,0,0,0,0,0,0,0,0,0,0,0,0,0,0,0,0,0,0,0,
0,0,0,0,0,0,0,0,0,0,0,0,0,0,0,0,0,0,0,0,0,0,0,0,0,0,0,0,0,0,0,0,0,0,0,0,0,0,0,0,
0,0,0,0,0,0,0,0,0,0,0,0,0,0,0,0,0,0,0,0,0,0,0,0,0,0,0,0,0,0,0,0,0,0,0,0,0,0,0,0,
0,0,0,0,0,0,0,0,0,0,0,0,0,0,0,0,0,0,0,0,0,0,0,0,0,0,0,0,0,0,0,0,0,0,0,0,0,0,0,0,
0,0,0,0,0,0,0,0,0,0,0,0,0,0,0,0,0,0,0,0,0,0,0,0,0,0,0,0,0,0,0,0,0,0,0,0,0,0,0,0,
0,0,0,0,0,0,0,0,0,0,0,0,0,0,0,0,0,0,0,0,0,0,0,0,0,0,0,0,0,0,0,0,0,0,0,0,0,0,0,0,
0,0,0,0,0,0,0,0,0,0,0,0,0,0,0,0,0,0,0,0,0,0,0,0,0,0,0,0,0,0,0,0,0,0,0,0,0,0,0,0,
0,0,0,0,0,0,0,0,0,0,0,0,0,0,0,0,0,0,0,0,0,0,0,0,0,0,0,0,0,0,0,0,0,0,0,0,0,0,0,0,
0,0,0,0,0,0,0,0,0,0,0,0,0,0,0,0,0,0,0,0,0,0,0,0,0,0,0,0,0,0,0,0,0,0,0,0,0,0,0,0
</data>
 </layer>
 <layer id="9" name="Grid" width="40" height="40" visible="0" opacity="0.22">
  <data encoding="csv">
0,0,0,0,0,0,0,0,0,0,2684354703,2684354703,2684354703,2684354703,2684354703,2684354703,2684354703,2684354703,2684354703,2684354703,0,0,0,0,0,0,0,0,0,0,2684354703,2684354703,2684354703,2684354703,2684354703,2684354703,2684354703,2684354703,2684354703,2684354703,
0,0,0,0,0,0,0,0,0,0,2684354703,2684354703,2684354703,2684354703,2684354703,2684354703,2684354703,2684354703,2684354703,2684354703,0,0,0,0,0,0,0,0,0,0,2684354703,2684354703,2684354703,2684354703,2684354703,2684354703,2684354703,2684354703,2684354703,2684354703,
0,0,0,0,0,0,0,0,0,0,2684354703,2684354703,2684354703,2684354703,2684354703,2684354703,2684354703,2684354703,2684354703,2684354703,0,0,0,0,0,0,0,0,0,0,2684354703,2684354703,2684354703,2684354703,2684354703,2684354703,2684354703,2684354703,2684354703,2684354703,
0,0,0,0,0,0,0,0,0,0,2684354703,2684354703,2684354703,2684354703,2684354703,2684354703,2684354703,2684354703,2684354703,2684354703,0,0,0,0,0,0,0,0,0,0,2684354703,2684354703,2684354703,2684354703,2684354703,2684354703,2684354703,2684354703,2684354703,2684354703,
0,0,0,0,0,0,0,0,0,0,2684354703,2684354703,2684354703,2684354703,2684354703,2684354703,2684354703,2684354703,2684354703,2684354703,0,0,0,0,0,0,0,0,0,0,2684354703,2684354703,2684354703,2684354703,2684354703,2684354703,2684354703,2684354703,2684354703,2684354703,
0,0,0,0,0,0,0,0,0,0,2684354703,2684354703,2684354703,2684354703,2684354703,2684354703,2684354703,2684354703,2684354703,2684354703,0,0,0,0,0,0,0,0,0,0,2684354703,2684354703,2684354703,2684354703,2684354703,2684354703,2684354703,2684354703,2684354703,2684354703,
0,0,0,0,0,0,0,0,0,0,2684354703,2684354703,2684354703,2684354703,2684354703,2684354703,2684354703,2684354703,2684354703,2684354703,0,0,0,0,0,0,0,0,0,0,2684354703,2684354703,2684354703,2684354703,2684354703,2684354703,2684354703,2684354703,2684354703,2684354703,
0,0,0,0,0,0,0,0,0,0,2684354703,2684354703,2684354703,2684354703,2684354703,2684354703,2684354703,2684354703,2684354703,2684354703,0,0,0,0,0,0,0,0,0,0,2684354703,2684354703,2684354703,2684354703,2684354703,2684354703,2684354703,2684354703,2684354703,2684354703,
0,0,0,0,0,0,0,0,0,0,2684354703,2684354703,2684354703,2684354703,2684354703,2684354703,2684354703,2684354703,2684354703,2684354703,0,0,0,0,0,0,0,0,0,0,2684354703,2684354703,2684354703,2684354703,2684354703,2684354703,2684354703,2684354703,2684354703,2684354703,
0,0,0,0,0,0,0,0,0,0,2684354703,2684354703,2684354703,2684354703,2684354703,2684354703,2684354703,2684354703,2684354703,2684354703,0,0,0,0,0,0,0,0,0,0,2684354703,2684354703,2684354703,2684354703,2684354703,2684354703,2684354703,2684354703,2684354703,2684354703,
3221225615,3221225615,3221225615,3221225615,3221225615,3221225615,3221225615,3221225615,3221225615,3221225615,0,0,0,0,0,0,0,0,0,0,2684354703,2684354703,2684354703,2684354703,2684354703,2684354703,2684354703,2684354703,2684354703,2684354703,0,0,0,0,0,0,0,0,0,0,
3221225615,3221225615,3221225615,3221225615,3221225615,3221225615,3221225615,3221225615,3221225615,3221225615,0,0,0,0,0,0,0,0,0,0,2684354703,2684354703,2684354703,2684354703,2684354703,2684354703,2684354703,2684354703,2684354703,2684354703,0,0,0,0,0,0,0,0,0,0,
3221225615,3221225615,3221225615,3221225615,3221225615,3221225615,3221225615,3221225615,3221225615,3221225615,0,0,0,0,0,0,0,0,0,0,2684354703,2684354703,2684354703,2684354703,2684354703,2684354703,2684354703,2684354703,2684354703,2684354703,0,0,0,0,0,0,0,0,0,0,
3221225615,3221225615,3221225615,3221225615,3221225615,3221225615,3221225615,3221225615,3221225615,3221225615,0,0,0,0,0,0,0,0,0,0,2684354703,2684354703,2684354703,2684354703,2684354703,2684354703,2684354703,2684354703,2684354703,2684354703,0,0,0,0,0,0,0,0,0,0,
3221225615,3221225615,3221225615,3221225615,3221225615,3221225615,3221225615,3221225615,3221225615,3221225615,0,0,0,0,0,0,0,0,0,0,2684354703,2684354703,2684354703,2684354703,2684354703,2684354703,2684354703,2684354703,2684354703,2684354703,0,0,0,0,0,0,0,0,0,0,
3221225615,3221225615,3221225615,3221225615,3221225615,3221225615,3221225615,3221225615,3221225615,3221225615,0,0,0,0,0,0,0,0,0,0,2684354703,2684354703,2684354703,2684354703,2684354703,2684354703,2684354703,2684354703,2684354703,2684354703,0,0,0,0,0,0,0,0,0,0,
3221225615,3221225615,3221225615,3221225615,3221225615,3221225615,3221225615,3221225615,3221225615,3221225615,0,0,0,0,0,0,0,0,0,0,2684354703,2684354703,2684354703,2684354703,2684354703,2684354703,2684354703,2684354703,2684354703,2684354703,0,0,0,0,0,0,0,0,0,0,
3221225615,3221225615,3221225615,3221225615,3221225615,3221225615,3221225615,3221225615,3221225615,3221225615,0,0,0,0,0,0,0,0,0,0,2684354703,2684354703,2684354703,2684354703,2684354703,2684354703,2684354703,2684354703,2684354703,2684354703,0,0,0,0,0,0,0,0,0,0,
3221225615,3221225615,3221225615,3221225615,3221225615,3221225615,3221225615,3221225615,3221225615,3221225615,0,0,0,0,0,0,0,0,0,0,2684354703,2684354703,2684354703,2684354703,2684354703,2684354703,2684354703,2684354703,2684354703,2684354703,0,0,0,0,0,0,0,0,0,0,
3221225615,3221225615,3221225615,3221225615,3221225615,3221225615,3221225615,3221225615,3221225615,3221225615,0,0,0,0,0,0,0,0,0,0,2684354703,2684354703,2684354703,2684354703,2684354703,2684354703,2684354703,2684354703,2684354703,2684354703,0,0,0,0,0,0,0,0,0,0,
0,0,0,0,0,0,0,0,0,0,2684354703,2684354703,2684354703,2684354703,2684354703,2684354703,2684354703,2684354703,2684354703,2684354703,0,0,0,0,0,0,0,0,0,0,2684354703,2684354703,2684354703,2684354703,2684354703,2684354703,2684354703,2684354703,2684354703,2684354703,
0,0,0,0,0,0,0,0,0,0,2684354703,2684354703,2684354703,2684354703,2684354703,2684354703,2684354703,2684354703,2684354703,2684354703,0,0,0,0,0,0,0,0,0,0,2684354703,2684354703,2684354703,2684354703,2684354703,2684354703,2684354703,2684354703,2684354703,2684354703,
0,0,0,0,0,0,0,0,0,0,2684354703,2684354703,2684354703,2684354703,2684354703,2684354703,2684354703,2684354703,2684354703,2684354703,0,0,0,0,0,0,0,0,0,0,2684354703,2684354703,2684354703,2684354703,2684354703,2684354703,2684354703,2684354703,2684354703,2684354703,
0,0,0,0,0,0,0,0,0,0,2684354703,2684354703,2684354703,2684354703,2684354703,2684354703,2684354703,2684354703,2684354703,2684354703,0,0,0,0,0,0,0,0,0,0,2684354703,2684354703,2684354703,2684354703,2684354703,2684354703,2684354703,2684354703,2684354703,2684354703,
0,0,0,0,0,0,0,0,0,0,2684354703,2684354703,2684354703,2684354703,2684354703,2684354703,2684354703,2684354703,2684354703,2684354703,0,0,0,0,0,0,0,0,0,0,2684354703,2684354703,2684354703,2684354703,2684354703,2684354703,2684354703,2684354703,2684354703,2684354703,
0,0,0,0,0,0,0,0,0,0,2684354703,2684354703,2684354703,2684354703,2684354703,2684354703,2684354703,2684354703,2684354703,2684354703,0,0,0,0,0,0,0,0,0,0,2684354703,2684354703,2684354703,2684354703,2684354703,2684354703,2684354703,2684354703,2684354703,2684354703,
0,0,0,0,0,0,0,0,0,0,2684354703,2684354703,2684354703,2684354703,2684354703,2684354703,2684354703,2684354703,2684354703,2684354703,0,0,0,0,0,0,0,0,0,0,2684354703,2684354703,2684354703,2684354703,2684354703,2684354703,2684354703,2684354703,2684354703,2684354703,
0,0,0,0,0,0,0,0,0,0,2684354703,2684354703,2684354703,2684354703,2684354703,2684354703,2684354703,2684354703,2684354703,2684354703,0,0,0,0,0,0,0,0,0,0,2684354703,2684354703,2684354703,2684354703,2684354703,2684354703,2684354703,2684354703,2684354703,2684354703,
0,0,0,0,0,0,0,0,0,0,2684354703,2684354703,2684354703,2684354703,2684354703,2684354703,2684354703,2684354703,2684354703,2684354703,0,0,0,0,0,0,0,0,0,0,2684354703,2684354703,2684354703,2684354703,2684354703,2684354703,2684354703,2684354703,2684354703,2684354703,
0,0,0,0,0,0,0,0,0,0,2684354703,2684354703,2684354703,2684354703,2684354703,2684354703,2684354703,2684354703,2684354703,2684354703,0,0,0,0,0,0,0,0,0,0,2684354703,2684354703,2684354703,2684354703,2684354703,2684354703,2684354703,2684354703,2684354703,2684354703,
2684354703,2684354703,2684354703,2684354703,2684354703,2684354703,2684354703,2684354703,2684354703,2684354703,0,0,0,0,0,0,0,0,0,0,2684354703,2684354703,2684354703,2684354703,2684354703,2684354703,2684354703,2684354703,2684354703,2684354703,0,0,0,0,0,0,0,0,0,0,
2684354703,2684354703,2684354703,2684354703,2684354703,2684354703,2684354703,2684354703,2684354703,2684354703,0,0,0,0,0,0,0,0,0,0,2684354703,2684354703,2684354703,2684354703,2684354703,2684354703,2684354703,2684354703,2684354703,2684354703,0,0,0,0,0,0,0,0,0,0,
2684354703,2684354703,2684354703,2684354703,2684354703,2684354703,2684354703,2684354703,2684354703,2684354703,0,0,0,0,0,0,0,0,0,0,2684354703,2684354703,2684354703,2684354703,2684354703,2684354703,2684354703,2684354703,2684354703,2684354703,0,0,0,0,0,0,0,0,0,0,
2684354703,2684354703,2684354703,2684354703,2684354703,2684354703,2684354703,2684354703,2684354703,2684354703,0,0,0,0,0,0,0,0,0,0,2684354703,2684354703,2684354703,2684354703,2684354703,2684354703,2684354703,2684354703,2684354703,2684354703,0,0,0,0,0,0,0,0,0,0,
2684354703,2684354703,2684354703,2684354703,2684354703,2684354703,2684354703,2684354703,2684354703,2684354703,0,0,0,0,0,0,0,0,0,0,2684354703,2684354703,2684354703,2684354703,2684354703,2684354703,2684354703,2684354703,2684354703,2684354703,0,0,0,0,0,0,0,0,0,0,
2684354703,2684354703,2684354703,2684354703,2684354703,2684354703,2684354703,2684354703,2684354703,2684354703,0,0,0,0,0,0,0,0,0,0,2684354703,2684354703,2684354703,2684354703,2684354703,2684354703,2684354703,2684354703,2684354703,2684354703,0,0,0,0,0,0,0,0,0,0,
2684354703,2684354703,2684354703,2684354703,2684354703,2684354703,2684354703,2684354703,2684354703,2684354703,0,0,0,0,0,0,0,0,0,0,2684354703,2684354703,2684354703,2684354703,2684354703,2684354703,2684354703,2684354703,2684354703,2684354703,0,0,0,0,0,0,0,0,0,0,
2684354703,2684354703,2684354703,2684354703,2684354703,2684354703,2684354703,2684354703,2684354703,2684354703,0,0,0,0,0,0,0,0,0,0,2684354703,2684354703,2684354703,2684354703,2684354703,2684354703,2684354703,2684354703,2684354703,2684354703,0,0,0,0,0,0,0,0,0,0,
2684354703,2684354703,2684354703,2684354703,2684354703,2684354703,2684354703,2684354703,2684354703,2684354703,0,0,0,0,0,0,0,0,0,0,2684354703,2684354703,2684354703,2684354703,2684354703,2684354703,2684354703,2684354703,2684354703,2684354703,0,0,0,0,0,0,0,0,0,0,
2684354703,2684354703,2684354703,2684354703,2684354703,2684354703,2684354703,2684354703,2684354703,2684354703,0,0,0,0,0,0,0,0,0,0,2684354703,2684354703,2684354703,2684354703,2684354703,2684354703,2684354703,2684354703,2684354703,2684354703,0,0,0,0,0,0,0,0,0,0
</data>
 </layer>
</map>
