<?xml version="1.0" encoding="UTF-8"?>
<map version="1.10" tiledversion="1.11.2" orientation="orthogonal" renderorder="right-down" width="50" height="37" tilewidth="48" tileheight="48" infinite="0" nextlayerid="3" nextobjectid="1">
 <tileset firstgid="1" source="FOREST.tsx"/>
 <layer id="1" name="Ground" width="50" height="37">
  <data encoding="csv">
34,35,36,82,82,82,82,82,82,82,82,82,82,82,82,82,82,82,82,82,82,82,82,82,82,82,82,82,82,82,82,82,82,82,82,82,82,82,82,82,82,82,82,82,82,82,82,82,82,82,
50,51,52,82,82,82,82,82,82,82,82,82,82,82,82,82,82,82,82,82,82,82,1,3,4,82,82,82,82,82,82,82,82,82,82,82,82,82,82,82,82,82,82,82,82,82,82,82,82,82,
82,82,82,82,82,82,82,82,82,82,82,82,82,82,82,82,82,82,82,82,1,3,37,51,52,82,82,82,82,82,82,82,82,82,82,82,82,82,82,82,82,82,82,82,82,82,82,82,82,82,
82,82,82,82,82,82,82,82,82,82,82,82,82,82,82,82,82,82,82,82,17,5,52,82,1,4,82,82,82,82,82,82,82,82,82,82,82,82,82,82,82,82,82,82,82,82,82,82,82,82,
82,82,82,82,82,82,82,82,82,82,82,82,82,82,82,82,82,82,82,82,82,52,82,82,49,52,1,2,3,4,82,82,82,82,82,82,82,82,82,82,82,82,82,82,82,82,82,82,82,82,
82,82,82,82,82,82,82,82,82,82,82,82,82,82,82,82,82,82,82,82,82,82,82,82,1,2,22,18,18,20,82,82,82,82,82,82,82,82,82,82,82,82,82,82,82,82,82,82,82,82,
82,82,82,82,82,82,82,82,82,82,82,82,82,82,82,82,82,1,2,4,82,82,82,82,49,6,18,18,18,36,82,219,82,82,82,82,82,82,82,82,82,82,82,82,82,82,82,82,82,82,
82,82,82,82,82,82,82,82,82,82,82,1,2,3,4,82,82,17,18,21,4,1,2,3,4,49,6,18,5,52,82,235,82,82,82,82,82,82,82,82,82,82,82,82,82,82,82,82,82,82,
82,82,82,82,82,82,82,82,82,82,82,33,18,18,20,82,82,33,18,35,21,22,19,19,21,82,49,50,52,82,82,251,82,82,82,82,82,82,82,82,82,82,82,82,82,82,82,82,82,82,
82,82,82,82,82,82,82,82,82,82,1,22,19,18,36,82,82,49,6,19,19,35,6,35,35,36,82,82,82,82,204,82,82,82,82,82,82,82,82,82,82,82,82,82,82,82,82,82,82,82,
82,82,82,82,82,82,82,82,82,1,22,18,18,5,52,82,82,82,49,51,52,82,49,50,51,52,82,82,218,219,220,82,82,82,82,82,82,82,82,82,82,82,82,82,82,82,82,82,82,82,
82,82,82,82,82,82,82,1,2,22,18,5,51,52,1,4,82,82,82,82,82,82,82,82,82,82,82,82,234,235,236,82,82,82,82,82,82,82,82,82,82,82,82,82,82,82,82,82,82,82,
82,82,1,4,82,82,82,49,6,35,18,20,82,1,22,20,82,204,219,82,82,82,82,82,82,82,82,82,250,251,252,82,82,82,82,82,82,82,82,82,82,82,82,82,82,82,82,82,82,82,
82,1,22,21,2,3,4,82,49,6,18,36,82,33,5,52,204,220,235,82,82,82,82,82,82,82,82,82,82,82,82,82,82,82,82,82,82,82,82,82,82,82,82,82,82,82,1,2,3,4,
82,49,6,18,18,18,36,82,82,49,51,52,82,49,52,82,220,236,251,82,82,82,82,82,82,82,82,82,82,82,82,82,82,1,2,4,82,82,82,82,82,82,82,82,82,82,33,18,18,20,
82,82,33,34,5,51,52,82,82,82,82,82,1,4,82,82,236,82,1,4,82,82,82,82,82,82,82,82,82,82,82,82,82,17,18,21,4,1,2,3,4,82,82,82,82,1,22,19,18,36,
82,82,49,51,52,82,1,3,4,82,82,82,49,38,4,82,252,1,22,21,2,3,4,82,82,82,82,82,1,2,3,4,82,33,18,35,21,22,19,19,21,82,82,82,1,22,18,18,5,52,
82,82,82,82,82,1,37,51,52,1,2,3,4,49,52,82,82,49,6,18,18,18,36,82,1,3,4,82,17,18,19,20,82,49,6,19,19,35,6,35,35,36,1,2,22,18,5,51,52,82,
82,82,82,82,82,49,52,1,4,17,18,19,20,82,82,82,82,82,33,34,5,51,52,82,49,51,52,82,33,34,35,36,82,82,49,51,52,82,49,50,51,52,49,6,35,18,20,82,82,82,
82,82,82,82,82,82,82,49,52,33,34,35,36,82,82,82,82,82,49,51,52,82,82,2,3,2,4,82,49,50,51,52,82,82,82,82,82,82,82,82,1,2,82,49,6,18,36,82,82,82,
82,82,82,82,82,82,82,82,82,49,50,51,52,82,82,82,82,82,82,82,1,4,33,18,18,19,21,4,82,82,82,82,1,3,4,82,82,82,1,2,22,18,82,82,49,51,52,82,82,82,
82,82,82,82,82,82,82,82,82,82,82,82,82,82,82,82,82,82,1,4,49,52,49,6,34,35,5,52,82,82,1,3,37,51,52,82,82,82,33,34,18,18,18,36,82,82,82,82,82,82,
82,82,82,82,82,82,82,82,82,82,82,82,82,82,82,82,82,1,22,20,82,82,82,33,18,19,20,82,82,82,17,5,52,82,1,4,1,4,49,50,6,18,5,52,82,82,82,82,82,82,
82,82,82,82,82,82,82,82,82,82,82,82,82,82,82,82,82,33,5,52,1,3,4,17,34,35,20,82,82,82,82,52,82,82,49,52,49,38,4,82,49,50,52,82,2,3,4,82,82,82,
82,82,82,82,82,82,82,82,82,82,82,82,82,82,82,82,82,49,52,1,37,51,52,33,18,19,36,82,1,2,3,2,2,3,4,82,82,49,52,82,1,2,3,22,18,19,20,82,82,82,
82,1,2,3,4,82,82,82,82,82,82,82,82,82,82,1,3,4,82,49,52,82,1,22,34,35,21,3,22,18,19,35,18,19,21,2,3,2,3,3,22,18,19,18,34,35,21,4,82,82,
3,22,18,19,21,3,3,4,82,82,82,82,82,82,82,49,51,52,1,3,4,82,17,18,18,19,19,19,18,5,50,6,34,35,18,19,18,19,18,35,18,34,35,18,18,19,19,20,82,82,
34,18,18,18,18,19,35,21,3,2,4,82,1,2,3,4,82,1,22,18,21,2,22,18,34,35,5,51,51,82,82,49,51,6,34,35,5,50,51,6,34,35,18,18,34,35,5,52,82,82,
34,18,18,18,34,35,35,35,35,18,21,2,22,18,19,21,3,22,19,34,35,18,19,5,50,82,1,4,82,82,82,82,82,49,50,51,52,82,82,49,50,51,50,6,34,35,36,82,82,82,
34,18,18,18,19,35,35,5,50,50,6,18,19,5,6,18,19,34,5,50,51,50,51,52,82,1,22,21,2,3,4,82,82,82,82,82,82,82,82,82,82,82,82,49,50,51,52,82,82,82,
51,50,51,6,35,5,50,52,1,4,49,50,51,52,49,50,50,51,52,82,82,82,82,82,82,49,6,18,18,18,36,82,82,82,82,82,82,82,82,82,82,82,82,82,82,82,82,82,82,82,
82,82,82,49,51,52,82,82,49,52,82,82,82,82,82,82,82,82,82,82,82,82,82,82,82,82,33,34,5,51,52,82,82,82,82,82,82,82,82,82,82,82,82,82,82,82,82,82,82,82,
82,82,82,82,82,82,82,82,82,82,82,82,82,82,82,82,82,82,82,82,82,82,82,82,82,82,49,51,52,82,82,82,82,82,82,82,82,82,82,82,82,82,82,82,82,82,82,82,82,82,
82,82,82,82,82,82,82,82,82,82,82,82,82,82,82,82,82,82,82,82,82,82,82,82,82,82,82,82,82,1,2,4,82,82,82,82,82,82,82,82,82,82,82,82,82,82,82,82,82,82,
82,82,82,82,82,82,82,82,82,82,82,82,82,82,82,82,82,82,82,82,82,82,82,82,82,82,82,82,82,17,18,21,4,1,2,3,4,82,82,82,82,82,82,82,82,82,82,82,82,82,
82,82,82,82,82,82,82,82,82,82,82,82,82,82,82,82,82,82,82,82,82,82,82,82,82,82,82,82,82,33,18,35,21,22,19,19,21,82,82,82,82,82,82,82,82,82,82,82,82,82,
82,82,82,82,82,82,82,82,82,82,82,82,82,82,82,82,82,82,82,82,82,82,82,82,82,82,82,82,82,49,6,19,19,35,6,35,35,36,82,82,82,82,82,82,82,82,82,82,82,82
</data>
 </layer>
 <layer id="2" name="Valley" width="50" height="37">
  <data encoding="csv">
0,0,0,0,0,202,203,204,205,0,0,0,0,0,0,0,0,0,0,0,0,0,0,0,0,0,0,0,0,0,0,0,0,0,0,173,0,0,0,0,0,0,0,0,0,0,0,0,0,0,
0,0,202,203,204,218,219,220,221,0,0,0,0,0,0,0,0,0,0,0,0,0,0,0,0,0,0,0,0,0,0,0,0,0,0,173,0,0,0,0,0,0,0,0,0,0,0,0,0,0,
202,203,204,219,220,234,235,236,237,0,0,0,0,0,0,0,0,0,0,0,0,0,0,0,0,0,0,0,0,0,0,0,0,0,0,189,0,0,0,0,0,0,0,0,0,0,0,0,0,0,
218,219,220,235,236,250,251,252,0,0,0,0,0,0,0,0,0,0,0,0,0,0,0,0,0,0,0,0,0,0,0,0,0,0,204,205,0,0,0,0,0,0,0,0,0,0,0,0,0,0,
234,235,236,251,252,253,0,0,0,0,0,0,0,0,0,0,0,0,0,0,0,0,0,0,0,0,0,0,0,0,0,0,0,204,220,221,0,0,0,0,0,0,0,0,0,0,0,0,0,0,
250,251,252,0,0,0,0,0,0,0,0,0,0,0,0,0,0,0,0,0,0,0,0,0,0,0,0,0,0,0,0,0,204,220,236,237,0,0,0,0,0,0,0,0,0,0,0,0,0,0,
0,0,0,0,0,0,0,0,0,0,0,0,0,0,0,0,0,0,0,0,0,0,0,0,0,0,0,0,0,0,0,204,220,236,252,0,0,0,0,0,0,0,0,0,0,0,0,0,0,0,
0,0,0,0,0,0,0,0,0,0,0,0,0,0,0,0,0,0,0,0,0,0,0,0,0,0,0,0,0,0,0,173,236,252,0,0,0,0,0,0,0,0,0,0,0,0,0,0,0,0,
0,0,0,0,0,0,0,0,0,0,0,0,0,0,0,0,0,0,0,0,0,0,0,0,0,0,0,0,0,0,0,189,252,0,0,0,0,0,0,0,0,0,0,0,0,0,0,0,0,0,
0,0,0,0,0,0,0,0,0,0,0,0,0,0,0,0,0,0,0,0,0,0,0,0,0,0,0,0,0,0,0,205,0,0,0,0,0,0,0,0,0,0,0,0,0,0,0,0,0,0,
0,0,0,0,0,0,0,0,0,0,0,0,0,0,0,0,0,0,0,0,0,0,0,0,0,0,0,0,173,0,0,221,0,0,0,0,0,0,0,0,0,0,0,0,0,0,0,0,0,0,
0,0,0,0,0,0,0,0,0,0,0,0,0,0,0,0,0,0,0,0,202,0,0,0,0,0,0,0,189,0,0,237,0,0,0,0,0,0,0,0,0,0,0,0,0,0,0,0,0,0,
0,0,0,0,0,0,0,0,0,0,0,0,0,0,0,0,0,0,0,218,218,201,202,0,0,0,203,204,205,0,0,0,0,0,0,0,0,0,0,0,0,0,0,0,0,0,0,0,0,0,
0,0,0,0,0,0,0,0,0,0,0,0,0,0,0,0,173,0,0,234,234,217,218,241,242,243,219,220,221,0,0,0,0,0,0,0,0,0,0,0,0,0,0,0,0,0,0,0,0,0,
0,0,0,0,0,0,0,0,0,0,0,0,0,0,0,0,189,0,0,250,250,233,234,241,242,243,235,236,237,0,0,0,0,0,0,0,0,0,0,0,0,0,0,0,0,0,0,0,0,0,
0,0,0,0,0,0,0,0,0,0,0,0,0,0,0,0,189,0,0,0,0,249,250,241,242,243,251,252,0,0,0,0,0,0,0,0,0,0,0,0,0,0,0,0,0,0,0,0,0,0,
0,0,0,0,0,0,0,0,0,0,0,0,0,0,0,0,189,0,0,0,0,0,0,0,0,0,0,0,0,0,0,0,0,0,0,0,0,0,0,0,0,0,0,0,0,0,0,0,0,0,
0,0,0,0,0,0,0,0,0,0,0,0,0,0,0,0,189,0,0,0,0,0,0,0,0,0,0,0,0,0,0,0,0,0,0,0,0,0,0,0,0,0,0,0,0,0,0,0,0,0,
0,0,0,0,0,0,0,0,0,0,0,0,0,0,0,0,189,0,0,0,0,0,0,0,0,0,0,0,0,0,0,0,0,0,0,0,0,0,0,0,0,0,0,0,0,0,0,0,0,0,
218,219,201,0,0,0,0,0,0,0,0,0,0,0,0,204,205,0,0,0,0,0,0,0,0,0,0,0,0,0,0,0,0,0,0,0,0,0,0,0,0,0,0,0,0,0,0,0,0,0,
234,235,217,218,219,219,219,201,0,0,0,0,0,0,204,220,221,0,0,0,0,0,0,0,0,0,0,0,0,0,0,0,0,0,0,0,0,0,0,0,0,0,0,0,0,0,0,0,0,0,
250,251,233,234,235,235,235,217,201,202,203,0,0,204,220,236,237,0,0,0,0,0,0,0,0,0,0,0,0,0,0,0,0,0,0,0,0,0,0,0,0,0,0,0,0,0,0,0,0,0,
0,248,249,250,251,251,251,233,217,218,219,218,219,220,236,252,0,0,0,0,0,0,0,0,0,0,0,0,0,0,0,0,0,0,0,0,0,0,0,0,0,0,0,0,0,0,0,0,0,0,
0,0,0,0,0,0,0,249,233,234,235,234,235,236,252,0,0,0,0,0,0,0,0,0,0,0,0,0,0,0,0,0,0,0,0,0,0,0,0,0,0,0,0,0,0,0,0,0,0,0,
0,0,0,0,0,0,0,248,249,250,251,250,251,252,0,0,0,0,0,0,0,0,0,0,0,0,0,0,0,0,0,0,0,0,0,0,0,0,0,0,0,0,0,0,0,0,0,0,0,0,
0,0,0,0,0,0,0,0,0,0,0,0,0,0,0,0,0,0,0,0,0,0,0,0,0,0,0,0,0,0,0,0,0,0,0,0,0,0,0,0,0,0,0,0,0,0,0,0,0,0,
0,0,0,0,0,0,0,0,0,0,0,0,0,0,0,0,0,0,0,0,0,0,0,0,0,0,0,0,0,0,0,0,0,0,0,0,0,0,0,0,0,0,0,0,0,0,0,0,0,0,
0,0,0,0,0,0,0,0,0,0,0,0,0,0,0,0,0,0,0,0,0,0,0,0,0,0,0,0,0,0,0,0,0,0,0,0,0,0,0,0,0,0,0,0,0,0,0,0,0,0,
0,0,0,0,0,0,0,0,0,0,0,0,0,0,0,0,0,0,0,0,0,0,0,0,0,0,0,0,0,0,0,0,0,0,0,0,0,0,0,0,0,0,0,0,0,0,0,0,0,0,
0,0,0,0,0,0,0,0,0,0,0,0,0,0,0,0,0,0,0,0,0,0,0,0,0,0,0,0,0,0,0,0,0,0,0,0,0,0,0,0,0,0,0,0,0,0,0,0,0,0,
0,0,0,0,0,0,0,0,0,0,0,0,0,0,0,0,0,0,0,0,0,0,0,0,0,0,0,0,0,0,0,0,0,0,0,0,0,0,0,0,0,0,0,0,0,0,0,0,0,0,
0,0,0,0,0,0,0,0,0,0,0,0,0,0,0,0,0,0,0,0,0,0,0,0,0,0,0,0,0,0,0,0,0,0,0,0,0,0,0,0,0,0,0,0,0,0,0,0,0,0,
0,0,0,0,0,0,0,0,0,0,0,0,0,136,137,138,139,138,139,138,139,140,0,0,0,0,0,0,0,0,0,0,0,0,0,0,0,0,0,0,0,0,0,0,0,0,0,0,0,0,
0,136,137,138,139,138,139,140,0,0,0,0,0,137,153,154,155,0,0,0,0,156,140,0,0,0,0,0,0,0,0,0,0,0,0,0,0,0,0,0,0,0,0,0,0,0,0,0,0,0,
0,152,153,0,0,0,0,156,138,139,138,139,139,153,0,0,0,0,0,0,0,0,156,140,0,0,0,0,0,0,0,0,0,0,0,0,0,0,0,0,0,0,0,0,0,0,0,0,0,0,
0,168,0,0,0,0,0,0,0,0,0,0,0,0,0,0,0,0,0,0,0,0,0,156,138,139,140,0,0,0,0,0,0,0,0,0,0,0,0,0,0,0,0,0,0,0,0,0,0,0,
0,184,0,0,0,0,0,0,0,0,0,0,0,0,0,0,0,0,0,0,0,0,0,0,0,0,156,157,0,0,0,0,0,0,0,0,0,0,0,0,0,0,0,0,0,0,0,0,0,0
</data>
 </layer>
</map>
