<?xml version="1.0" encoding="UTF-8"?>
<map version="1.10" tiledversion="1.11.2" orientation="orthogonal" renderorder="right-down" width="120" height="60" tilewidth="48" tileheight="48" infinite="0" nextlayerid="3" nextobjectid="3">
 <tileset firstgid="1" source="iconic interiors.tsx"/>
 <tileset firstgid="64" source="DungeonTileset1.tsx"/>
 <tileset firstgid="127" source="DungeonTileset2.tsx"/>
 <layer id="1" name="Tile Layer 1" width="120" height="60">
  <data encoding="csv">
64,64,64,64,64,64,64,64,64,64,64,64,64,64,64,64,64,64,64,64,64,64,64,64,64,64,64,64,64,64,64,64,64,64,64,64,64,64,64,64,64,64,64,64,64,64,64,64,64,64,64,64,64,64,64,64,64,64,64,64,64,64,64,64,64,64,64,64,64,64,64,64,64,64,64,64,64,64,64,64,64,64,64,64,64,64,64,64,64,64,64,64,64,64,64,64,64,64,64,64,64,64,64,64,64,64,64,64,64,64,64,64,64,64,64,64,64,64,64,64,
64,64,64,64,64,64,64,64,64,64,64,64,64,64,64,64,64,64,64,64,64,64,64,64,64,64,64,64,64,64,64,64,64,64,64,64,64,64,64,64,64,64,64,64,64,64,64,64,64,64,64,64,64,64,64,64,64,64,64,64,64,64,64,64,64,64,64,64,64,64,64,64,64,64,64,64,64,64,64,64,64,64,64,64,64,64,64,64,64,64,64,64,64,64,64,64,64,64,64,64,64,64,64,64,64,64,64,64,64,64,64,64,64,64,64,64,64,64,64,64,
64,64,64,64,64,64,64,64,64,64,64,64,64,64,64,64,64,64,64,64,64,64,64,64,64,64,64,64,64,64,64,64,64,64,64,64,64,64,64,64,64,64,64,64,64,64,64,64,64,64,64,64,64,64,64,64,64,64,64,64,64,64,64,64,64,64,64,64,64,64,64,64,64,64,64,64,64,64,64,64,64,64,64,64,64,64,64,64,64,64,64,64,64,64,64,64,64,64,64,64,64,64,64,64,64,64,64,64,64,64,64,64,64,64,64,64,64,64,64,64,
64,64,64,64,64,64,64,64,64,64,64,64,64,64,64,64,64,64,64,64,64,64,64,64,64,64,64,64,64,64,64,64,64,64,64,64,64,64,64,64,64,64,64,64,64,64,64,64,64,64,64,64,64,64,64,64,64,64,64,64,64,64,64,64,64,64,64,64,64,64,64,64,64,64,64,64,64,64,64,64,64,64,64,64,64,64,64,64,64,64,64,64,64,64,64,64,64,64,64,64,64,64,64,64,64,64,64,64,64,64,64,64,64,64,64,64,64,64,64,64,
64,64,64,64,64,64,64,64,64,64,64,64,64,64,64,64,64,64,64,64,64,64,64,64,64,64,64,64,64,64,64,64,64,64,64,64,64,64,64,64,64,64,64,64,64,64,64,64,64,64,64,64,64,64,64,64,64,64,64,64,64,64,64,64,64,64,64,64,64,64,64,64,64,64,64,64,64,64,64,64,64,64,64,64,64,64,64,64,64,64,64,64,64,64,64,64,64,64,64,64,64,64,64,64,64,64,64,64,64,64,64,64,64,64,64,64,64,64,64,64,
64,64,64,64,64,64,64,64,64,64,64,64,64,64,64,64,64,64,64,64,64,64,64,64,64,64,64,64,64,64,64,64,64,64,64,64,64,64,64,64,64,64,64,64,64,64,64,64,64,64,64,64,64,64,64,64,64,64,64,64,64,64,64,64,64,64,64,64,64,64,64,64,64,64,64,64,64,64,64,64,64,64,64,64,64,64,64,64,64,64,64,64,64,64,64,64,64,64,64,64,64,64,64,64,64,64,64,64,64,64,64,64,64,64,64,64,64,64,64,64,
64,64,64,64,64,64,64,64,64,64,64,64,64,64,64,64,64,64,64,64,64,64,64,64,64,64,64,64,64,64,64,64,64,64,64,64,64,64,64,64,64,64,64,64,64,64,64,64,64,64,64,64,64,64,64,64,64,64,64,64,64,64,64,64,64,64,64,64,64,64,64,64,64,64,64,64,64,64,64,64,64,64,64,64,64,64,64,64,64,64,64,64,64,64,64,64,64,64,64,64,64,64,64,64,64,64,64,64,64,64,64,64,64,64,64,64,64,64,64,64,
64,64,64,64,64,64,64,64,64,64,154,154,154,154,154,154,154,154,154,154,64,64,64,64,64,64,64,64,64,64,154,154,154,154,154,154,154,154,154,154,154,154,154,154,154,154,154,154,154,154,64,64,64,64,64,64,64,64,64,64,154,154,154,154,154,154,154,154,64,64,64,64,64,64,64,64,64,64,64,64,64,64,64,64,64,64,64,64,64,64,64,64,64,64,64,64,64,64,64,64,64,64,64,64,64,64,64,64,64,64,64,64,64,64,64,64,64,64,64,64,
64,64,64,64,64,64,64,64,64,64,154,154,154,154,154,154,154,154,154,154,64,64,64,64,64,64,64,64,64,64,154,154,154,154,154,154,154,154,154,154,154,154,154,154,154,154,154,154,154,154,64,64,64,64,64,64,64,64,64,64,154,154,154,154,154,154,154,154,154,64,64,64,64,64,64,64,64,64,64,64,64,64,64,64,64,64,64,64,64,64,64,64,64,64,64,64,64,64,64,64,64,64,64,64,64,64,64,64,64,64,64,64,64,64,64,64,64,64,64,64,
64,64,64,64,64,64,64,64,64,64,154,154,154,154,154,154,154,154,154,154,64,64,64,64,64,64,64,64,64,64,154,154,154,154,154,154,154,154,154,154,154,154,154,154,154,154,154,154,154,154,64,64,64,64,64,64,64,64,64,154,154,154,154,154,154,154,154,154,154,154,64,64,64,64,64,64,64,64,64,64,64,64,64,64,64,64,64,64,64,64,64,64,64,64,64,64,64,64,64,64,64,64,64,64,64,64,64,64,64,64,64,64,64,64,64,64,64,64,64,64,
64,64,64,64,64,64,64,64,64,64,299,299,299,299,299,299,299,299,299,299,154,154,154,154,154,154,154,154,154,154,299,299,299,299,299,299,299,299,299,299,299,299,299,299,299,299,299,299,299,299,154,154,154,154,154,154,154,154,154,154,299,299,299,299,299,299,299,299,299,154,154,64,64,64,64,64,64,64,64,64,64,64,64,64,64,64,64,64,64,64,154,154,154,154,154,154,154,154,154,154,154,154,154,154,154,154,154,154,154,154,154,154,154,154,154,154,154,64,64,64,
64,64,64,64,64,64,64,64,64,64,299,299,299,299,299,299,299,299,299,299,154,154,154,154,154,154,154,154,154,154,299,299,299,299,299,299,299,299,299,299,299,299,299,299,299,299,299,299,299,299,154,154,154,154,154,154,154,154,154,154,299,299,299,299,299,299,299,299,299,154,154,64,64,64,64,64,64,64,64,64,64,64,64,64,64,64,64,64,64,64,154,154,154,154,154,154,154,154,154,154,154,154,154,154,154,154,154,154,154,154,154,154,154,154,154,154,154,64,64,64,
64,64,64,64,64,64,64,64,64,64,299,299,299,299,299,299,299,299,299,299,154,154,154,154,154,154,154,154,154,154,299,299,299,299,299,299,299,299,299,299,299,299,299,299,299,299,299,299,299,299,154,154,154,154,154,154,154,154,154,299,299,299,299,299,299,299,299,299,299,299,154,64,64,64,64,64,64,64,64,64,64,64,64,64,64,64,64,64,64,64,154,154,154,154,154,154,154,154,154,154,154,154,154,154,154,154,154,154,154,154,154,154,154,154,154,154,154,64,64,64,
64,64,64,64,64,64,64,64,64,64,299,299,299,299,299,299,299,299,299,299,299,299,299,299,299,299,299,299,299,299,299,299,299,299,299,299,299,299,299,299,299,299,299,299,299,299,299,299,299,299,299,299,299,299,299,299,299,299,299,299,299,299,299,299,299,299,299,299,299,299,299,64,64,64,64,64,64,64,64,64,64,64,64,64,64,64,64,64,64,64,299,299,299,299,299,299,299,299,299,299,299,299,299,299,299,299,299,299,299,299,299,299,299,299,299,299,299,64,64,64,
64,64,64,64,64,64,64,64,64,64,299,299,299,299,299,299,299,299,299,299,299,299,299,299,299,299,299,299,299,299,299,299,299,299,299,299,299,299,299,299,299,299,299,299,299,299,299,299,299,299,299,299,299,299,299,299,299,299,299,299,299,299,299,299,299,299,299,299,299,299,299,64,64,64,64,64,64,64,64,64,64,64,64,64,64,64,64,64,64,64,299,299,299,299,299,299,299,299,299,299,299,299,299,299,299,299,299,299,299,299,299,299,299,299,299,299,299,64,64,64,
64,64,64,64,64,64,64,64,64,64,299,299,299,299,299,299,299,299,299,299,299,299,299,299,299,299,299,299,299,299,299,299,299,299,299,299,299,299,299,299,299,299,299,299,299,299,299,299,299,299,299,299,299,299,299,299,299,299,299,299,299,299,299,299,299,299,299,299,299,299,299,64,64,64,64,64,64,64,64,64,64,64,64,64,64,64,64,64,64,64,299,299,299,299,299,299,299,299,299,299,299,299,299,299,299,299,299,299,299,299,299,299,299,299,299,299,299,64,64,64,
64,64,64,64,64,64,64,64,64,64,299,299,299,299,299,299,299,299,299,299,299,299,299,299,299,299,299,299,299,299,299,299,299,299,299,299,299,299,299,299,299,299,299,299,299,299,299,299,299,299,299,299,299,299,299,299,299,299,299,299,299,299,299,299,299,299,299,299,299,299,299,64,64,64,64,64,64,64,64,64,64,64,64,64,64,64,64,64,64,64,299,299,299,299,299,299,299,299,299,299,299,299,299,299,299,299,299,299,299,299,299,299,299,299,299,299,299,64,64,64,
64,64,64,64,64,64,64,64,64,64,299,299,299,299,299,299,299,299,299,299,64,64,64,64,64,64,64,64,64,64,299,299,299,299,299,299,299,299,299,299,299,299,299,299,299,299,299,299,299,299,64,64,64,64,64,64,64,64,64,64,299,299,299,299,299,299,299,299,299,299,64,64,64,64,64,64,64,64,64,64,64,64,64,64,64,64,64,64,64,64,299,299,299,299,299,299,299,299,299,299,299,299,299,299,299,299,299,299,299,299,299,299,299,299,299,299,299,64,64,64,
64,64,64,64,64,64,64,64,64,64,299,299,299,299,299,299,299,299,299,64,64,64,64,64,64,64,64,64,64,64,299,299,299,299,299,299,299,299,299,299,299,299,299,299,299,299,299,299,299,299,64,64,64,64,64,64,64,64,64,64,299,299,299,299,299,299,299,299,299,64,64,64,64,64,64,64,64,64,64,64,64,64,64,64,64,64,64,64,64,64,299,299,299,299,299,299,299,299,299,299,299,299,299,299,299,299,299,299,299,299,299,299,299,299,299,299,299,64,64,64,
64,64,64,64,64,64,64,64,64,64,64,299,299,299,299,299,299,299,64,64,64,64,64,64,64,64,64,64,64,64,299,299,299,299,299,299,299,299,299,299,299,299,299,299,299,299,299,299,299,299,64,64,64,64,64,64,64,64,64,64,64,299,299,299,299,299,299,299,64,64,64,64,64,64,64,64,64,64,64,64,64,64,64,64,64,64,64,64,64,64,299,299,299,299,299,299,299,299,299,299,299,299,299,299,299,299,299,299,299,299,299,299,299,299,299,299,299,64,64,64,
64,64,64,64,64,64,64,64,64,64,64,64,64,299,299,299,299,64,64,64,64,64,64,64,64,64,64,64,64,64,299,299,299,299,299,299,299,299,299,299,299,299,299,299,299,299,299,299,299,299,64,64,64,64,64,64,64,64,64,64,64,64,64,64,64,64,64,64,64,64,64,64,64,64,64,64,64,64,64,64,64,64,64,64,64,64,64,64,64,64,299,299,299,299,299,299,299,299,299,299,299,299,299,299,299,299,299,299,299,299,299,299,299,299,299,299,299,64,64,64,
64,64,64,64,64,64,64,64,64,64,64,64,64,299,299,299,299,64,64,64,64,64,64,64,64,64,64,64,64,64,299,299,299,299,299,299,299,299,299,299,299,299,299,299,299,299,299,299,299,299,64,64,64,64,64,64,64,64,64,64,64,64,64,64,64,64,64,64,64,64,64,64,64,64,64,64,64,64,64,64,64,64,64,64,64,64,64,64,64,64,299,299,299,299,299,299,299,299,299,299,299,299,299,299,299,299,299,299,299,299,299,299,299,299,299,299,299,64,64,64,
64,64,64,64,64,64,64,64,64,64,64,64,64,299,299,299,299,64,64,64,64,64,64,64,64,64,64,64,64,64,299,299,299,299,299,299,299,299,299,299,299,299,299,299,299,299,299,299,299,299,64,64,64,64,64,64,64,64,64,64,64,64,64,64,64,64,64,64,64,64,64,64,64,64,64,64,64,64,64,64,64,64,64,64,64,64,64,64,64,64,299,299,299,299,299,299,299,299,299,299,299,299,299,299,299,299,299,299,299,299,299,299,299,299,299,299,299,64,64,64,
64,64,64,64,64,64,64,64,64,64,64,64,64,299,299,299,299,64,64,64,64,64,64,64,64,64,64,64,64,64,299,299,299,299,299,299,299,299,299,299,299,299,299,299,299,299,299,299,299,299,64,64,64,64,64,64,64,64,64,64,64,64,64,64,64,64,64,64,64,64,64,64,64,64,64,64,64,64,64,64,64,64,64,64,64,64,64,64,64,64,299,299,299,299,299,299,299,299,299,299,299,299,299,299,299,299,299,299,299,299,299,299,299,299,299,299,299,64,64,64,
64,64,64,64,64,64,64,64,64,64,64,64,64,299,299,299,299,64,64,64,64,64,64,64,64,64,64,64,64,64,299,299,299,299,299,299,299,299,299,299,299,299,299,299,299,299,299,299,299,299,64,64,64,64,64,64,64,64,64,64,64,64,64,64,64,64,64,64,64,64,64,64,64,64,64,64,64,64,64,64,64,64,64,64,64,64,64,64,64,64,299,299,299,299,299,299,299,299,299,299,299,299,299,299,299,299,299,299,299,299,299,299,299,299,299,299,299,64,64,64,
64,64,64,64,64,64,64,64,64,64,64,64,64,299,299,299,299,64,64,64,64,64,64,64,64,64,64,64,64,64,299,299,299,299,299,299,299,299,299,299,299,299,299,299,299,299,299,299,299,299,64,64,64,64,64,64,64,64,64,64,64,64,64,64,64,64,64,64,64,64,64,64,64,64,64,64,64,64,64,64,64,64,64,64,64,64,64,64,64,64,299,299,299,299,299,299,299,299,299,299,299,299,299,299,299,299,299,299,299,299,299,299,299,299,299,299,299,64,64,64,
64,64,64,64,64,64,64,64,64,64,64,64,64,299,299,299,299,64,64,64,64,64,64,64,64,64,64,64,64,64,299,299,299,299,299,299,299,299,299,299,299,299,299,299,299,299,299,299,299,299,64,64,64,64,64,64,64,64,64,64,64,64,64,64,64,64,64,64,64,64,64,64,64,64,64,64,64,64,64,64,64,64,64,64,64,64,64,64,64,64,299,299,299,299,299,299,299,299,299,299,299,299,299,299,299,299,299,299,299,299,299,299,299,299,299,299,299,64,64,64,
64,64,64,64,64,64,64,64,64,64,64,64,64,299,299,299,299,64,64,64,64,64,64,64,64,64,64,64,64,64,64,64,64,64,64,64,64,64,64,64,64,64,64,64,64,64,64,64,64,64,64,64,64,64,64,64,64,64,64,64,154,154,154,154,154,154,154,154,154,154,154,154,154,154,154,154,154,154,154,154,64,64,64,64,64,64,64,64,64,64,299,299,299,299,299,299,299,299,299,299,299,299,299,299,299,299,299,299,299,299,299,299,299,299,299,299,299,64,64,64,
64,64,64,64,64,64,64,64,64,64,64,64,64,299,299,299,299,64,64,64,64,64,64,64,64,64,64,64,64,64,64,64,64,64,64,64,64,64,64,64,64,64,64,64,64,64,64,64,64,64,64,64,64,64,64,64,64,64,64,64,154,154,154,154,154,154,154,154,154,154,154,154,154,154,154,154,154,154,154,154,64,64,64,64,64,64,64,64,64,64,299,299,299,299,299,299,299,299,299,299,299,299,299,299,299,299,299,299,299,299,299,299,299,299,299,299,299,64,64,64,
64,64,64,64,64,64,64,64,64,64,64,64,64,299,299,299,299,64,64,64,64,64,64,64,64,64,64,64,64,64,64,64,64,64,64,64,64,64,64,64,64,64,64,64,64,64,64,64,64,64,64,64,64,64,64,64,64,64,64,64,154,154,154,154,154,154,154,154,154,154,154,154,154,154,154,154,154,154,154,154,64,64,64,64,64,64,64,64,64,64,299,299,299,299,299,299,299,299,299,299,299,299,299,299,299,299,299,299,299,299,299,299,299,299,299,299,299,64,64,64,
64,64,64,64,64,64,64,64,64,64,64,64,64,299,299,299,299,64,64,64,64,64,64,64,64,64,64,64,64,64,64,64,64,64,64,64,64,64,64,64,64,64,64,64,64,64,64,64,64,64,64,64,64,64,64,64,64,64,64,64,299,299,299,299,299,299,299,299,299,299,299,299,299,299,299,299,299,299,299,299,64,64,64,64,64,64,64,64,64,64,299,299,299,299,299,299,299,299,299,299,299,299,299,299,299,299,299,299,299,299,299,299,299,299,299,299,299,64,64,64,
64,64,64,64,64,64,64,64,64,64,64,64,64,299,299,299,299,64,64,64,64,64,64,64,64,64,64,64,64,64,64,64,64,64,64,64,64,64,64,64,64,64,64,64,64,64,64,64,64,64,64,64,64,64,64,64,64,64,64,64,299,299,299,299,299,299,299,299,299,299,299,299,299,299,299,299,299,299,299,299,64,64,64,64,64,64,64,64,64,64,299,299,299,299,299,299,299,299,299,299,299,299,299,299,299,299,299,299,299,299,299,299,299,299,299,299,299,64,64,64,
64,64,64,64,64,64,64,64,64,64,64,64,64,299,299,299,299,64,64,64,64,64,64,64,64,64,64,64,64,64,64,64,64,64,64,64,64,64,64,64,64,64,64,64,64,64,64,64,64,64,64,64,64,64,64,64,64,64,64,64,299,299,299,299,299,299,299,299,299,299,299,299,299,299,299,299,299,299,299,299,64,64,64,64,64,64,64,64,64,64,299,299,299,299,299,299,299,299,299,299,299,299,299,299,299,299,299,299,299,299,299,299,299,299,299,299,299,64,64,64,
64,64,64,64,64,64,64,64,64,64,64,64,64,299,299,299,299,64,64,64,64,64,64,64,64,64,64,64,64,64,64,64,64,64,64,64,64,64,64,64,64,64,64,64,64,64,64,64,64,64,64,64,64,64,64,64,64,64,64,64,299,299,299,299,299,299,299,299,299,299,299,299,299,299,299,299,299,299,299,299,64,64,64,64,64,64,64,64,64,64,299,299,299,299,299,299,299,299,299,299,299,299,299,299,299,299,299,299,299,299,299,299,299,299,299,299,299,64,64,64,
64,64,64,64,64,64,64,64,64,64,64,64,64,299,299,299,299,64,64,64,64,64,64,64,64,64,64,64,64,64,64,64,64,64,64,64,64,64,64,64,64,64,64,64,64,64,64,64,64,64,64,64,64,64,64,64,64,64,64,64,299,299,299,299,299,299,299,299,299,299,299,299,299,299,299,299,299,299,299,299,64,64,64,64,64,64,64,64,64,64,299,299,299,299,299,299,299,299,299,299,299,299,299,299,299,299,299,299,299,299,299,299,299,299,299,299,299,64,64,64,
64,64,64,64,64,64,64,64,64,64,64,64,64,299,299,299,299,64,64,64,64,64,64,64,64,64,64,64,64,64,64,64,64,64,64,64,64,64,64,64,64,64,64,64,64,64,64,64,154,154,154,154,154,154,154,154,154,154,154,154,299,299,299,299,299,299,299,299,299,299,299,299,299,299,299,299,299,299,299,299,154,154,154,154,154,154,154,64,64,64,299,299,299,299,299,299,299,299,299,299,299,299,299,299,299,299,299,299,299,299,299,299,299,299,299,299,299,64,64,64,
64,64,64,64,64,64,64,64,64,64,64,64,64,299,299,299,299,64,64,64,64,64,64,64,64,64,64,64,64,64,64,64,64,64,64,64,64,64,64,64,64,64,64,64,64,64,64,64,154,154,154,154,154,154,154,154,154,154,154,154,299,299,299,299,299,299,299,299,299,299,299,299,299,299,299,299,299,299,299,299,154,154,154,154,154,154,154,64,64,64,299,299,299,299,299,299,299,299,299,299,299,299,299,299,299,299,299,299,299,299,299,299,299,299,299,299,299,64,64,64,
64,64,64,64,64,64,64,64,64,64,64,64,64,299,299,299,299,64,64,64,154,154,154,154,154,154,154,154,154,154,154,154,154,154,154,154,154,154,154,154,64,64,64,64,64,64,64,64,154,154,154,154,154,154,154,154,154,154,154,154,299,299,299,299,299,299,299,299,299,299,299,299,299,299,299,299,299,299,299,299,154,154,154,154,154,154,154,64,64,64,299,299,299,299,299,299,299,299,299,299,299,299,299,299,299,299,299,299,299,299,299,299,299,299,299,299,299,64,64,64,
64,64,64,64,64,64,64,64,64,64,64,64,64,299,299,299,299,64,64,64,154,154,154,154,154,154,154,154,154,154,154,154,154,154,154,154,154,154,154,154,64,64,64,64,64,64,64,64,299,299,299,299,299,299,299,299,299,299,299,299,299,299,299,299,299,299,299,299,299,299,299,299,299,299,299,299,299,299,299,299,299,299,299,299,299,299,299,64,64,64,299,299,299,299,299,299,299,299,299,299,299,299,299,299,299,299,299,299,299,299,299,299,299,299,299,299,299,64,64,64,
64,64,64,64,64,64,64,64,64,64,64,64,64,299,299,299,299,64,64,154,154,154,154,154,154,154,154,154,154,154,154,154,154,154,154,154,154,154,154,154,64,64,64,64,64,64,64,64,299,299,299,299,299,299,299,299,299,299,299,299,299,299,299,299,299,299,299,299,299,299,299,299,299,299,299,299,299,299,299,299,299,299,299,299,299,299,299,64,64,64,299,299,299,299,299,299,299,299,299,299,299,299,299,299,299,299,299,299,299,299,299,299,299,299,299,299,299,64,64,64,
64,64,64,64,64,64,64,64,64,64,64,64,64,299,299,299,299,154,154,154,299,299,299,299,299,299,299,299,299,299,299,299,299,299,299,299,299,299,299,299,64,64,64,64,64,64,64,64,299,299,299,299,299,299,299,299,299,299,299,299,299,299,299,299,299,299,299,299,299,299,299,299,299,299,299,299,299,299,299,299,299,299,299,299,299,299,299,64,64,64,64,64,64,64,64,64,64,64,64,64,64,64,64,299,299,299,299,64,64,64,64,64,64,64,64,64,64,64,64,64,
64,64,64,64,64,64,64,64,64,64,64,64,64,299,299,299,299,154,154,154,299,299,299,299,299,299,299,299,299,299,299,299,299,299,299,299,299,299,299,299,64,64,64,64,64,64,64,64,299,299,299,299,299,299,299,299,299,299,299,299,299,299,299,299,299,299,299,299,299,299,299,299,299,299,299,299,299,299,299,299,299,299,299,299,299,299,299,64,64,64,64,64,64,64,64,64,64,64,64,64,64,64,64,299,299,299,299,64,64,64,64,64,64,64,64,64,64,64,64,64,
64,64,64,64,64,64,64,64,64,64,64,64,64,299,299,299,299,154,154,299,299,299,299,299,299,299,299,299,299,299,299,299,299,299,299,299,299,299,299,299,64,64,64,64,64,64,64,64,299,299,299,299,64,64,64,64,64,64,64,64,299,299,299,299,299,299,299,299,299,299,299,299,299,299,299,299,299,299,299,299,64,64,64,299,299,299,299,154,154,154,154,154,154,154,154,154,154,154,154,154,154,154,154,299,299,299,299,64,64,64,64,64,64,64,64,64,64,64,64,64,
64,64,64,64,64,64,64,64,64,64,64,64,64,299,299,299,299,299,299,299,299,299,299,299,299,299,299,299,299,299,299,299,299,299,299,299,299,299,299,299,64,64,64,64,64,64,64,64,299,299,299,299,64,64,64,64,64,64,64,64,299,299,299,299,299,299,299,299,299,299,299,299,299,299,299,299,299,299,299,299,64,64,64,299,299,299,299,154,154,154,154,154,154,154,154,154,154,154,154,154,154,154,154,299,299,299,299,64,64,64,64,64,64,64,64,64,64,64,64,64,
64,64,64,64,64,64,64,64,64,64,64,64,64,299,299,299,299,299,299,299,299,299,299,299,299,299,299,299,299,299,299,299,299,299,299,299,299,299,299,299,64,64,64,64,64,64,64,64,299,299,299,299,64,64,64,64,64,64,64,64,299,299,299,299,299,299,299,299,299,299,299,299,299,299,299,299,299,299,299,299,64,64,64,299,299,299,299,154,154,154,154,154,154,154,154,154,154,154,154,154,154,154,154,299,299,299,299,64,64,64,64,64,64,64,64,64,64,64,64,64,
64,64,64,64,64,64,64,64,64,64,64,64,64,299,299,299,299,299,299,299,299,299,299,299,299,299,299,299,299,299,299,299,299,299,299,299,299,299,299,299,154,154,154,154,154,154,154,154,299,299,299,299,64,64,64,64,64,64,64,64,299,299,299,299,299,299,299,299,299,299,299,299,299,299,299,299,299,299,299,299,64,64,64,299,299,299,299,299,299,299,299,299,299,299,299,299,299,299,299,299,299,299,299,299,299,299,299,64,64,64,64,64,64,64,64,64,64,64,64,64,
64,64,64,64,64,64,64,64,64,64,64,64,64,299,299,299,299,299,299,299,299,299,299,299,299,299,299,299,299,299,299,299,299,299,299,299,299,299,299,299,154,154,154,154,154,154,154,154,299,299,299,299,64,64,64,64,64,64,64,64,299,299,299,299,299,299,299,299,299,299,299,299,299,299,299,299,299,299,299,299,64,64,64,299,299,299,299,299,299,299,299,299,299,299,299,299,299,299,299,299,299,299,299,299,299,299,299,64,64,64,64,64,64,64,64,64,64,64,64,64,
64,64,64,64,64,64,64,64,64,64,64,64,64,64,64,64,64,64,299,299,299,299,299,299,299,299,299,299,299,299,299,299,299,299,299,299,299,299,299,299,154,154,154,154,154,154,154,154,299,299,299,299,64,64,64,64,64,64,64,64,299,299,299,299,299,299,299,299,299,299,299,299,299,299,299,299,299,299,299,299,64,64,64,299,299,299,299,299,299,299,299,299,299,299,299,299,299,299,299,299,299,299,299,299,299,299,299,64,64,64,64,64,64,64,64,64,64,64,64,64,
64,64,64,64,64,64,64,64,64,64,64,64,64,64,64,64,64,64,64,299,299,299,299,299,299,299,299,299,299,299,299,299,299,299,299,299,299,299,299,299,299,299,299,299,299,299,299,299,299,299,299,299,64,64,64,64,64,64,64,64,299,299,299,299,299,299,299,299,299,299,299,299,299,299,299,299,299,299,299,299,64,64,64,299,299,299,299,299,299,299,299,299,299,299,299,299,299,299,299,299,299,299,299,299,299,299,299,64,64,64,64,64,64,64,64,64,64,64,64,64,
64,64,64,64,64,64,64,64,64,64,64,64,64,64,64,64,64,64,64,64,299,299,299,299,299,299,299,299,299,299,299,299,299,299,299,299,299,299,299,299,299,299,299,299,299,299,299,299,299,299,299,299,64,64,64,64,64,64,64,64,299,299,299,299,299,299,299,299,299,299,299,299,299,299,299,299,299,299,299,299,64,64,64,64,64,64,64,64,64,64,64,64,64,64,64,64,64,64,64,64,64,64,64,64,64,64,64,64,64,64,64,64,64,64,64,64,64,64,64,64,
64,64,64,64,64,64,64,64,64,64,64,64,64,64,64,64,64,64,64,64,299,299,299,299,299,299,299,299,299,299,299,299,299,299,299,299,299,299,299,299,299,299,299,299,299,299,299,299,299,299,299,299,64,64,64,64,64,64,64,64,64,64,64,64,64,64,64,64,64,64,64,64,64,64,64,64,64,64,64,64,64,64,64,64,64,64,64,64,64,64,64,64,64,64,64,64,64,64,64,64,64,64,64,64,64,64,64,64,64,64,64,64,64,64,64,64,64,64,64,64,
64,64,64,64,64,64,64,64,64,64,64,64,64,64,64,64,64,64,64,64,299,299,299,299,299,299,299,299,299,299,299,299,299,299,299,299,299,299,299,299,299,299,299,299,299,299,299,299,299,299,299,299,64,64,64,64,64,64,64,64,64,64,64,64,64,64,64,64,64,64,64,64,64,64,64,64,64,64,64,64,64,64,64,64,64,64,64,64,64,64,64,64,64,64,64,64,64,64,64,64,64,64,64,64,64,64,64,64,64,64,64,64,64,64,64,64,64,64,64,64,
64,64,64,64,64,64,64,64,64,64,64,64,64,64,64,64,64,64,64,64,299,299,299,299,299,299,299,299,299,299,299,299,299,299,299,299,299,299,299,299,64,64,64,64,64,64,64,64,64,64,64,64,64,64,64,64,64,64,64,64,64,64,64,64,64,64,64,64,64,64,64,64,64,64,64,64,64,64,64,64,64,64,64,64,64,64,64,64,64,64,64,64,64,64,64,64,64,64,64,64,64,64,64,64,64,64,64,64,64,64,64,64,64,64,64,64,64,64,64,64,
64,64,64,64,64,64,64,64,64,64,64,64,64,64,64,64,64,64,64,64,299,299,299,299,299,299,299,299,299,299,299,299,299,299,299,299,299,299,299,299,64,64,64,64,64,64,64,64,64,64,64,64,64,64,64,64,64,64,64,64,64,64,64,64,64,64,64,64,64,64,64,64,64,64,64,64,64,64,64,64,64,64,64,64,64,64,64,64,64,64,64,64,64,64,64,64,64,64,64,64,64,64,64,64,64,64,64,64,64,64,64,64,64,64,64,64,64,64,64,64,
64,64,64,64,64,64,64,64,64,64,64,64,64,64,64,64,64,64,64,64,299,299,299,299,299,299,299,299,299,299,299,299,299,299,299,299,299,299,299,299,64,64,64,64,64,64,64,64,64,64,64,64,64,64,64,64,64,64,64,64,64,64,64,64,64,64,64,64,64,64,64,64,64,64,64,64,64,64,64,64,64,64,64,64,64,64,64,64,64,64,64,64,64,64,64,64,64,64,64,64,64,64,64,64,64,64,64,64,64,64,64,64,64,64,64,64,64,64,64,64,
64,64,64,64,64,64,64,64,64,64,64,64,64,64,64,64,64,64,64,64,299,299,299,299,299,299,299,299,299,299,299,299,299,299,299,299,299,299,299,299,64,64,64,64,64,64,64,64,64,64,64,64,64,64,64,64,64,64,64,64,64,64,64,64,64,64,64,64,64,64,64,64,64,64,64,64,64,64,64,64,64,64,64,64,64,64,64,64,64,64,64,64,64,64,64,64,64,64,64,64,64,64,64,64,64,64,64,64,64,64,64,64,64,64,64,64,64,64,64,64,
64,64,64,64,64,64,64,64,64,64,64,64,64,64,64,64,64,64,64,64,299,299,299,299,299,299,299,299,299,299,299,299,299,299,299,299,299,299,299,299,64,64,64,64,64,64,64,64,64,64,64,64,64,64,64,64,64,64,64,64,64,64,64,64,64,64,64,64,64,64,64,64,64,64,64,64,64,64,64,64,64,64,64,64,64,64,64,64,64,64,64,64,64,64,64,64,64,64,64,64,64,64,64,64,64,64,64,64,64,64,64,64,64,64,64,64,64,64,64,64,
64,64,64,64,64,64,64,64,64,64,64,64,64,64,64,64,64,64,64,64,64,64,64,64,64,64,64,64,64,64,64,64,64,64,64,64,64,64,64,64,64,64,64,64,64,64,64,64,64,64,64,64,64,64,64,64,64,64,64,64,64,64,64,64,64,64,64,64,64,64,64,64,64,64,64,64,64,64,64,64,64,64,64,64,64,64,64,64,64,64,64,64,64,64,64,64,64,64,64,64,64,64,64,64,64,64,64,64,64,64,64,64,64,64,64,64,64,64,64,64,
64,64,64,64,64,64,64,64,64,64,64,64,64,64,64,64,64,64,64,64,64,64,64,64,64,64,64,64,64,64,64,64,64,64,64,64,64,64,64,64,64,64,64,64,64,64,64,64,64,64,64,64,64,64,64,64,64,64,64,64,64,64,64,64,64,64,64,64,64,64,64,64,64,64,64,64,64,64,64,64,64,64,64,64,64,64,64,64,64,64,64,64,64,64,64,64,64,64,64,64,64,64,64,64,64,64,64,64,64,64,64,64,64,64,64,64,64,64,64,64,
64,64,64,64,64,64,64,64,64,64,64,64,64,64,64,64,64,64,64,64,64,64,64,64,64,64,64,64,64,64,64,64,64,64,64,64,64,64,64,64,64,64,64,64,64,64,64,64,64,64,64,64,64,64,64,64,64,64,64,64,64,64,64,64,64,64,64,64,64,64,64,64,64,64,64,64,64,64,64,64,64,64,64,64,64,64,64,64,64,64,64,64,64,64,64,64,64,64,64,64,64,64,64,64,64,64,64,64,64,64,64,64,64,64,64,64,64,64,64,64
</data>
 </layer>
</map>
