<?xml version="1.0" encoding="UTF-8"?>
<map version="1.10" tiledversion="1.11.2" orientation="orthogonal" renderorder="right-down" width="120" height="60" tilewidth="48" tileheight="48" infinite="0" nextlayerid="2" nextobjectid="1">
 <tileset firstgid="1" name="castle interiors" tilewidth="48" tileheight="48" tilecount="50" columns="10">
  <image source="../itch.io assets/19.12a - Iconic Castle 2.0 (1)/castle interiors.png" width="512" height="256"/>
 </tileset>
 <tileset firstgid="51" name="iconic castle" tilewidth="48" tileheight="48" tilecount="32" columns="8">
  <image source="../itch.io assets/19.12a - Iconic Castle 2.0 (1)/iconic castle.png" width="416" height="208"/>
 </tileset>
 <tileset firstgid="83" name="castle interiors, prefab samples" tilewidth="48" tileheight="48" tilecount="224" columns="16">
  <image source="../itch.io assets/19.12a - Iconic Castle 2.0 (1)/extras/castle interiors, prefab samples.png" width="800" height="672"/>
 </tileset>
 <tileset firstgid="307" name="iconic_homestead v1" tilewidth="48" tileheight="48" tilecount="120" columns="12">
  <image source="../itch.io assets/18.09a - Iconic Homestead 2.0/iconic_homestead v1.png" width="608" height="496"/>
 </tileset>
 <tileset firstgid="427" name="iconic interiors" tilewidth="48" tileheight="48" tilecount="63" columns="7">
  <image source="../itch.io assets/18.09a - Iconic Homestead 2.0/iconic interiors.png" width="336" height="448"/>
 </tileset>
 <tileset firstgid="490" name="iconic homestead ruins v1" tilewidth="48" tileheight="48" tilecount="4" columns="2">
  <image source="../itch.io assets/18.09a - Iconic Homestead 2.0/iconic homestead ruins v1.png" width="128" height="128"/>
 </tileset>
 <tileset firstgid="494" source="DungeonTileset1.tsx"/>
 <tileset firstgid="557" source="DungeonTileset2.tsx"/>
 <layer id="1" name="Tile Layer 1" width="120" height="60">
  <data encoding="csv">
494,494,494,494,494,494,494,494,494,494,494,494,494,494,494,494,494,494,494,494,494,494,494,494,494,494,494,494,494,494,494,494,494,494,494,494,494,494,494,494,494,494,494,494,494,494,494,494,494,494,494,494,494,494,494,494,494,494,494,494,494,494,494,494,494,494,494,494,494,494,494,494,494,494,494,494,494,494,494,494,494,494,494,494,494,494,494,494,494,494,494,494,494,494,494,494,494,494,494,494,494,494,494,494,494,494,494,494,494,494,494,494,494,494,494,494,494,494,494,494,
494,494,494,494,494,494,494,494,494,494,494,494,494,494,494,494,494,494,494,494,494,494,494,494,494,494,494,494,494,494,494,494,494,494,494,494,494,494,494,494,494,494,494,494,494,494,494,494,494,494,494,494,494,494,494,494,494,494,494,494,494,494,494,494,494,494,494,494,494,494,494,494,494,494,494,494,494,494,494,494,584,584,584,584,584,584,584,584,584,584,584,584,584,584,584,584,584,584,584,584,584,584,494,494,494,494,494,494,494,494,494,494,494,494,494,494,494,494,494,494,
494,494,494,494,494,494,584,584,584,584,584,584,584,584,584,584,584,584,584,584,584,584,584,584,584,584,584,584,584,584,584,584,584,584,584,584,584,584,584,584,584,584,584,584,584,494,494,494,494,494,494,494,494,494,494,494,494,494,494,494,494,494,494,494,494,494,494,494,494,494,494,494,494,494,494,494,494,494,494,584,584,584,584,584,584,584,584,584,584,584,584,584,584,584,584,584,584,584,584,584,584,584,584,584,584,494,494,494,494,494,494,494,494,494,494,494,494,494,494,494,
494,494,494,494,494,584,584,584,584,584,584,584,584,584,584,584,584,584,584,584,584,584,584,584,584,584,584,584,584,584,584,584,584,584,584,584,584,584,584,584,584,584,584,584,584,584,584,494,494,494,494,494,494,494,494,494,494,494,494,494,494,494,494,494,494,494,494,494,494,494,494,494,494,494,494,494,494,494,494,584,584,584,584,584,584,584,584,584,584,584,584,584,584,584,584,584,584,584,584,584,584,584,584,584,584,584,494,494,494,494,494,494,494,494,494,494,494,494,494,494,
494,494,494,494,494,584,584,584,584,584,584,584,584,584,584,584,584,584,584,584,584,584,584,584,584,584,584,584,584,584,584,584,584,584,584,584,584,584,584,584,584,584,584,584,584,584,584,584,584,584,494,494,494,494,494,494,494,494,494,494,494,494,494,494,494,494,494,494,494,494,494,494,494,494,494,494,494,494,584,584,729,729,729,729,729,729,729,729,729,729,729,729,729,729,729,729,729,729,729,729,729,729,584,584,584,584,584,494,494,494,494,494,494,494,494,494,494,494,494,494,
494,494,494,494,584,584,729,729,729,729,729,729,729,729,729,729,729,729,729,729,729,729,729,729,729,729,729,729,729,729,729,729,729,729,729,729,729,729,729,729,729,729,729,729,729,584,584,584,584,584,584,584,584,494,494,494,494,494,494,494,494,494,494,494,494,494,494,494,494,494,494,494,494,494,494,494,494,584,584,729,729,729,729,729,729,729,729,729,729,729,729,729,729,729,729,729,729,729,729,729,729,729,729,729,729,584,584,584,494,494,494,494,494,494,494,494,494,494,494,494,
494,494,494,494,584,729,729,729,729,729,729,729,729,729,729,729,729,729,729,729,729,729,729,729,729,729,729,729,729,729,729,729,729,729,729,729,729,729,729,729,729,729,729,729,729,729,729,584,584,584,584,584,584,584,584,494,494,494,494,494,494,494,494,494,494,494,494,494,494,494,494,494,494,494,494,494,494,584,584,729,729,729,729,729,729,729,729,729,729,729,729,729,729,729,729,729,729,729,729,729,729,729,729,729,729,729,584,584,494,494,494,494,494,494,494,494,494,494,494,494,
494,494,494,494,584,729,729,729,729,729,729,729,729,729,729,729,729,729,729,729,729,729,729,729,729,729,729,729,729,729,729,729,729,729,729,729,729,729,729,729,729,729,729,729,729,729,729,729,729,729,584,584,584,584,584,584,584,494,494,494,494,494,494,494,494,494,494,494,494,494,494,494,494,494,494,494,584,584,729,729,729,729,729,729,729,729,729,729,729,729,729,729,729,729,729,729,729,729,729,729,729,729,729,729,729,729,729,584,494,494,494,494,494,494,494,494,494,494,494,494,
494,494,494,494,729,729,729,729,729,729,729,729,729,729,729,729,729,729,729,729,729,729,729,729,729,729,729,729,729,729,729,729,729,729,729,729,729,729,729,729,729,729,729,729,729,729,729,729,729,729,729,729,729,584,584,584,584,584,494,494,494,494,494,494,494,494,494,494,494,494,494,494,494,494,494,494,584,729,729,729,729,729,729,729,729,729,729,729,729,729,729,729,729,729,729,729,729,729,729,729,729,729,729,729,729,729,729,729,494,494,494,494,494,494,494,494,494,494,494,494,
494,494,494,494,729,729,729,729,729,729,729,729,729,729,729,729,729,729,729,729,729,729,729,729,729,729,729,729,729,729,729,729,729,729,729,729,729,729,729,729,729,729,729,729,729,729,729,729,729,729,729,729,729,729,729,584,584,584,494,494,494,494,494,494,494,494,494,494,494,494,494,494,494,494,494,494,584,729,729,729,729,729,729,729,729,729,729,729,729,729,729,729,729,729,729,729,729,729,729,729,729,729,729,729,729,729,729,729,494,494,494,494,494,494,494,494,494,494,494,494,
494,494,494,494,729,729,729,729,729,729,729,729,729,729,729,729,729,729,729,729,729,729,729,729,729,729,729,729,729,729,729,729,729,729,729,729,729,729,729,729,729,729,729,729,729,729,729,729,729,729,729,729,729,729,729,729,729,584,584,494,494,494,494,494,494,494,494,494,494,494,494,494,494,494,494,494,729,729,729,729,729,729,729,729,729,729,729,729,729,729,729,729,729,729,729,729,729,729,729,729,729,729,729,729,729,729,729,729,494,494,494,494,494,494,494,494,494,494,494,494,
494,494,494,494,729,729,729,729,729,729,729,729,729,729,729,729,729,729,729,729,729,729,729,729,729,729,729,729,729,729,729,729,729,729,729,729,729,729,729,729,729,729,729,729,729,729,729,729,729,729,729,729,729,729,729,729,729,729,584,494,494,494,494,494,494,494,494,494,494,494,494,494,494,494,494,584,729,729,729,729,729,729,729,729,729,729,729,729,729,729,729,729,729,729,729,729,729,729,729,729,729,729,729,729,729,729,729,729,494,494,494,494,494,494,494,494,494,494,494,494,
494,494,494,494,729,729,729,729,729,729,729,729,729,729,729,729,729,729,729,729,729,729,729,729,729,729,729,729,729,729,729,729,729,729,729,729,729,729,729,729,729,729,729,729,729,729,729,729,729,729,729,729,729,729,729,729,729,729,584,494,494,494,494,494,494,494,494,494,494,494,494,584,584,584,584,584,729,729,729,729,729,729,729,729,729,729,729,729,729,729,729,729,729,729,729,729,729,729,729,729,729,729,729,729,729,729,729,494,494,494,494,494,494,494,494,494,494,494,494,494,
494,494,494,494,494,729,729,729,729,729,729,729,729,729,729,729,729,729,729,494,494,494,494,494,494,729,729,729,729,729,729,729,729,729,729,729,729,729,729,729,729,729,729,729,729,729,729,729,729,729,729,729,729,729,729,729,729,729,729,584,494,494,494,494,494,494,494,494,494,494,584,584,584,584,584,584,729,729,729,729,729,729,729,729,729,729,729,729,729,729,729,729,729,729,729,729,729,729,729,729,729,729,729,729,729,729,729,494,494,494,494,494,494,494,494,494,494,494,494,494,
494,494,494,494,494,729,729,729,729,729,729,729,729,729,729,729,729,729,729,494,494,494,494,494,494,729,729,729,729,729,729,729,729,729,729,729,729,729,729,729,729,729,729,729,729,729,729,729,729,729,729,729,729,729,729,729,729,729,729,584,584,584,584,584,494,494,494,584,584,584,584,584,584,584,584,729,729,729,729,729,729,729,729,729,729,729,729,729,729,729,729,729,729,729,729,729,729,729,729,729,729,729,729,729,729,494,494,494,494,494,494,494,494,494,494,494,494,494,494,494,
494,494,494,494,494,494,494,729,729,729,729,729,729,729,729,729,729,729,729,494,494,494,494,494,494,729,729,729,729,729,729,729,729,729,729,729,729,729,729,729,729,729,729,729,729,729,729,729,729,729,729,729,729,729,729,729,729,729,729,584,584,584,584,584,584,584,584,584,584,584,584,729,729,729,729,729,729,729,729,729,729,729,729,729,729,729,729,729,729,729,729,729,729,729,729,729,729,729,729,729,729,494,494,494,494,494,494,494,494,494,494,494,494,494,494,494,494,494,494,494,
494,494,494,494,494,494,494,494,494,494,494,494,729,729,729,729,729,729,494,494,494,494,494,494,494,729,729,729,729,729,729,729,729,729,729,729,729,729,729,729,729,729,729,729,729,729,729,729,729,729,729,729,729,729,729,729,729,729,729,729,584,584,584,584,584,584,584,584,584,584,729,729,729,729,729,729,729,729,729,729,729,729,729,729,729,729,729,729,729,729,729,729,729,729,729,729,729,729,729,729,494,494,494,494,494,494,494,494,494,494,494,494,494,494,494,494,494,494,494,494,
494,494,494,494,494,494,494,494,494,494,494,494,729,729,729,729,729,729,494,494,494,494,494,494,494,729,729,729,729,729,729,729,729,729,729,729,729,729,729,729,729,729,729,729,729,729,729,729,729,729,729,729,729,729,729,729,729,729,729,729,729,729,729,729,584,584,584,729,729,729,729,729,729,729,729,729,729,729,729,729,729,729,729,729,729,729,729,729,729,729,729,729,729,729,729,729,729,494,494,494,494,494,494,494,494,494,494,494,494,494,494,494,494,494,494,494,494,494,494,494,
494,494,494,494,494,494,494,494,494,494,494,494,729,729,729,729,729,729,494,494,494,494,494,494,494,729,729,729,729,729,729,729,729,729,729,729,729,729,729,729,729,729,729,729,729,729,729,729,729,729,729,729,729,729,729,729,729,729,729,729,729,729,729,729,729,729,729,729,729,729,729,729,729,729,729,729,729,729,729,729,729,729,729,494,494,494,494,494,494,494,494,494,494,494,494,494,494,494,494,494,494,494,494,494,494,494,494,494,494,494,494,494,494,494,494,494,494,494,494,494,
494,494,494,494,494,494,494,494,494,494,584,584,729,729,729,729,729,729,494,494,494,494,494,494,494,729,729,729,729,729,729,729,729,729,729,729,729,729,729,729,729,729,729,729,729,729,729,729,729,729,729,729,729,729,729,729,729,729,729,729,729,729,729,729,729,729,729,729,729,729,729,729,729,729,729,729,729,729,729,729,729,729,729,494,494,494,494,494,494,494,494,494,494,494,494,494,494,494,494,494,494,494,494,494,494,494,494,494,494,494,494,494,494,494,494,494,494,494,494,494,
494,494,494,494,494,494,494,494,494,584,584,584,729,729,729,729,729,729,494,494,494,494,494,494,494,729,729,729,729,729,729,729,729,729,729,729,729,729,729,729,729,729,729,729,729,729,729,729,729,729,729,729,729,729,729,729,729,729,729,729,729,729,729,729,729,729,729,729,729,729,729,729,729,729,729,729,729,729,729,729,729,729,729,584,494,494,494,494,494,494,494,494,494,494,494,494,494,494,494,494,494,494,494,494,494,494,494,494,494,494,494,494,494,494,494,494,494,494,494,494,
494,494,494,494,494,494,584,584,584,584,584,584,729,729,729,729,729,729,494,494,494,494,494,494,494,729,729,729,729,729,729,729,729,729,729,729,729,729,729,729,729,729,729,729,729,729,729,729,729,729,729,729,729,729,729,729,729,729,729,729,729,729,729,729,729,729,729,729,729,729,729,729,729,729,729,729,729,729,729,729,729,729,729,584,584,494,494,494,494,494,494,494,494,494,494,494,494,494,494,494,494,494,494,494,494,494,494,494,494,494,494,494,494,494,494,494,494,494,494,494,
494,494,494,494,494,584,584,584,584,584,729,729,729,729,729,729,729,494,494,494,494,494,494,494,494,729,729,729,729,729,729,729,729,729,729,729,729,729,729,729,729,729,729,729,729,729,729,729,729,729,729,729,729,729,729,729,729,729,729,729,729,729,729,729,729,729,729,729,729,729,729,729,729,729,729,729,729,729,729,729,729,729,729,584,584,584,494,494,494,494,494,494,494,494,494,494,494,494,494,494,494,494,494,494,494,494,494,494,494,494,494,494,494,494,494,494,494,494,494,494,
494,494,494,494,584,584,584,584,584,729,729,729,729,729,729,729,729,494,494,494,494,494,494,494,494,494,729,729,729,729,729,729,729,729,729,729,729,729,729,729,729,729,729,729,729,729,729,729,729,729,729,729,729,729,729,729,729,729,729,729,729,729,729,729,729,729,729,729,729,729,729,729,729,729,729,729,729,729,729,729,729,729,729,729,584,584,494,494,494,494,494,494,494,494,494,494,494,494,494,494,494,494,494,494,494,494,494,494,494,494,494,494,494,494,494,494,494,494,494,494,
494,494,494,584,584,584,729,729,729,729,729,729,729,729,729,729,729,494,494,494,494,494,494,494,494,494,729,729,729,729,729,729,729,729,729,729,729,729,729,729,729,729,729,729,729,729,729,729,729,729,729,729,729,729,729,729,729,729,729,729,729,729,729,729,729,729,729,729,729,729,729,729,729,729,729,729,729,729,729,729,729,729,729,729,729,584,584,494,494,494,494,494,494,494,494,494,494,494,494,494,494,494,494,494,494,494,494,494,494,494,494,494,494,494,494,494,494,494,494,494,
494,494,494,584,584,729,729,729,729,729,729,729,729,729,729,729,729,494,494,494,494,494,494,494,494,494,729,729,729,729,729,729,729,729,729,729,729,729,729,729,729,729,729,729,729,729,729,729,729,729,729,729,729,729,729,729,729,729,729,729,729,729,729,729,729,729,729,729,729,729,729,729,729,729,729,729,729,729,729,729,729,729,729,729,729,729,584,584,494,494,494,494,494,494,494,494,494,494,494,494,494,494,494,494,494,494,494,494,494,494,494,494,494,494,494,494,494,494,494,494,
494,494,494,584,729,729,729,729,729,729,729,729,729,729,729,729,729,494,494,494,494,494,494,494,494,494,729,729,729,729,729,729,729,729,729,729,729,729,729,729,729,729,729,729,729,729,729,729,729,729,729,729,729,729,729,729,729,729,729,729,729,729,729,729,729,729,729,729,729,729,729,729,729,729,729,729,729,729,729,729,729,729,729,729,729,729,584,584,584,494,494,494,494,494,494,494,494,494,494,494,494,494,494,494,494,494,494,494,494,494,494,494,494,494,494,494,494,494,494,494,
494,494,494,729,729,729,729,729,729,729,729,729,729,729,729,729,729,494,494,494,494,494,494,494,494,494,494,494,729,729,729,729,729,729,729,729,729,729,729,729,729,729,729,729,729,729,729,729,729,729,729,729,729,729,729,729,729,729,729,729,729,729,729,729,729,729,729,729,729,729,729,729,729,729,729,729,729,729,729,729,729,729,729,729,729,729,729,584,584,584,494,494,494,494,494,494,494,494,494,494,494,494,494,494,494,494,494,494,494,494,494,494,494,494,494,494,494,494,494,494,
494,494,494,729,729,729,729,729,729,729,729,729,729,729,729,729,729,494,494,494,494,494,494,494,494,494,494,494,494,729,729,729,729,729,729,729,729,729,729,729,494,494,494,494,494,494,729,729,729,729,729,729,729,729,729,729,729,729,729,729,729,729,729,729,729,729,729,729,729,729,729,729,729,729,729,729,729,729,729,729,729,729,729,729,729,729,729,729,584,584,584,584,494,494,494,494,494,494,494,494,494,494,494,494,494,494,494,494,494,494,494,494,494,494,494,494,494,494,494,494,
494,494,494,729,729,729,729,729,729,729,729,729,729,729,729,729,729,494,494,494,494,494,494,494,494,494,494,494,494,494,729,729,729,729,729,729,729,729,494,494,494,494,494,494,494,494,494,494,494,494,494,494,494,494,729,729,729,729,729,729,729,729,729,729,729,729,729,729,729,729,729,729,729,729,729,729,729,729,729,729,729,729,729,729,729,729,729,729,729,584,584,584,584,494,494,494,494,494,494,494,494,494,494,494,494,494,494,494,494,494,494,494,494,494,494,494,494,494,494,494,
494,494,494,729,729,729,729,729,729,729,729,729,729,729,729,729,729,494,494,494,494,494,494,494,494,494,494,494,584,584,729,729,729,729,729,729,729,729,494,494,494,494,494,494,494,494,494,494,494,494,494,494,494,494,494,494,494,494,494,494,494,729,729,729,729,494,494,494,494,494,494,494,494,494,494,494,494,494,494,494,494,494,494,729,729,729,729,729,729,729,584,584,584,584,494,494,494,494,494,494,494,494,494,494,494,494,494,494,494,494,494,494,494,494,494,494,494,494,494,494,
494,494,494,494,729,729,729,729,729,729,729,729,729,729,729,729,729,494,494,494,494,494,494,494,494,494,584,584,584,584,729,729,729,729,729,729,729,729,494,494,494,494,494,494,494,494,494,494,494,494,494,494,494,494,494,494,494,494,494,494,494,494,494,494,494,494,494,494,494,494,494,494,494,494,494,494,494,494,494,494,494,494,494,729,729,729,729,729,729,729,729,729,584,584,494,494,494,494,494,494,494,494,494,494,494,494,494,494,494,494,494,494,494,494,494,494,494,494,494,494,
494,494,494,494,729,729,729,729,729,729,729,729,729,729,729,729,729,494,494,494,494,494,494,494,494,494,584,584,584,584,729,729,729,729,729,729,729,729,494,494,494,494,494,494,494,494,494,494,494,494,494,494,494,494,494,494,494,494,494,494,494,494,494,494,494,494,494,494,494,494,494,494,494,494,494,494,494,494,494,494,494,494,584,729,729,729,729,729,729,729,729,729,729,584,584,494,494,494,494,494,494,494,494,494,494,494,494,494,494,494,494,494,494,494,494,494,494,494,494,494,
494,494,494,494,494,729,729,729,729,729,729,729,729,729,729,729,494,494,494,494,494,494,494,494,494,584,584,584,729,729,729,729,729,729,729,729,729,729,494,494,494,494,494,494,494,494,494,494,494,494,494,494,494,494,494,494,494,494,494,494,494,494,494,494,494,494,494,494,494,494,494,494,494,494,494,494,494,494,494,494,494,584,584,729,729,729,729,729,729,729,729,729,729,729,584,584,494,494,494,494,494,494,494,494,494,494,494,494,494,494,494,494,494,494,494,494,494,494,494,494,
494,494,494,494,494,494,729,729,729,729,729,729,729,729,729,729,494,494,494,494,494,494,494,494,584,584,729,729,729,729,729,729,729,729,729,729,729,729,494,494,494,494,494,494,494,494,494,494,494,494,494,494,494,494,494,494,494,494,494,494,494,494,494,494,494,494,494,494,494,494,494,494,494,494,494,494,494,494,494,584,584,584,584,729,729,729,729,729,729,729,729,729,729,729,584,584,494,494,494,494,494,584,584,584,584,584,584,494,494,494,494,494,494,494,494,494,494,494,494,494,
494,494,494,494,494,494,494,729,729,729,729,729,729,729,494,494,494,494,494,494,494,494,584,584,584,584,729,729,729,729,729,729,729,729,729,729,729,729,494,494,494,494,494,494,494,494,494,494,494,494,494,494,494,494,494,494,494,494,494,494,494,494,494,494,494,494,494,494,494,494,494,494,494,494,494,494,494,494,494,584,584,584,729,729,729,729,729,729,729,729,729,729,729,729,729,584,494,584,584,584,584,584,584,584,584,584,584,584,584,494,494,494,494,494,494,494,494,494,494,494,
494,494,494,494,494,494,494,494,494,494,494,494,494,494,494,494,584,584,584,584,584,584,584,584,584,584,729,729,729,729,729,729,729,729,729,729,729,729,494,494,494,494,494,494,494,494,494,494,494,494,494,494,494,494,494,494,494,494,494,494,494,494,584,584,584,584,584,584,584,584,584,584,584,584,584,584,584,584,584,584,584,729,729,729,729,729,729,729,729,729,729,729,729,729,729,729,584,584,584,584,584,584,584,584,584,584,584,584,584,494,494,494,494,494,494,494,494,494,494,494,
494,494,494,494,494,494,494,494,494,494,494,494,494,494,494,494,584,584,584,584,584,584,584,584,584,729,729,729,729,729,729,729,729,729,729,729,729,729,494,494,494,494,494,494,494,494,494,494,494,494,494,494,494,494,494,494,494,494,494,494,494,584,584,584,584,584,584,584,584,584,584,584,584,584,584,584,584,584,584,729,729,729,729,729,729,729,729,729,729,729,729,729,729,729,729,729,584,584,584,584,584,729,729,729,729,729,729,584,584,584,494,494,494,494,494,494,494,494,494,494,
494,494,494,494,494,494,494,494,494,494,494,494,494,494,494,584,584,584,584,584,584,584,729,729,729,729,729,729,729,729,729,729,729,729,729,729,729,729,494,494,494,494,494,494,494,494,494,494,494,494,494,494,494,494,494,494,494,494,494,494,494,584,584,584,584,584,584,584,584,584,584,584,584,584,584,584,584,584,584,729,729,729,729,729,729,729,729,729,729,729,729,729,729,729,729,729,584,729,729,729,729,729,729,729,729,729,729,729,729,584,494,494,494,494,494,494,494,494,494,494,
494,494,494,494,494,494,494,494,494,494,494,494,494,494,494,584,729,729,729,729,729,729,729,729,729,729,729,729,729,729,729,729,729,729,729,729,729,494,494,494,494,494,494,494,494,494,494,494,494,494,494,494,494,494,494,494,494,494,494,494,584,584,729,729,729,729,729,729,729,729,729,729,729,729,729,729,729,729,729,729,729,729,729,729,729,729,729,729,729,729,729,729,729,729,729,729,729,729,729,729,729,729,729,729,729,729,729,729,729,584,584,494,494,494,494,494,494,494,494,494,
494,494,494,494,494,494,494,494,494,584,584,584,584,584,584,584,729,729,729,729,729,729,729,729,729,729,729,729,729,729,729,729,729,729,729,729,729,494,494,494,494,494,494,494,494,494,494,494,494,494,494,494,494,494,494,494,494,494,494,584,584,729,729,729,729,729,729,729,729,729,729,729,729,729,729,729,729,729,729,729,729,729,729,729,729,729,729,729,729,729,729,729,729,729,729,729,729,729,729,729,729,729,729,729,729,729,729,729,729,729,584,494,494,494,494,494,494,494,494,494,
494,494,494,494,494,494,494,494,494,584,584,584,584,584,584,729,729,729,729,729,729,729,729,729,729,729,729,729,729,729,729,729,729,729,729,729,729,494,494,494,494,494,494,494,494,494,494,494,494,494,494,494,494,494,494,494,494,494,494,584,584,729,729,729,729,729,729,729,729,729,729,729,729,729,729,729,729,729,729,729,729,729,729,729,729,729,729,729,729,729,729,729,729,729,729,729,729,729,729,729,729,729,729,729,729,729,729,729,729,729,584,494,494,494,494,494,494,494,494,494,
494,494,494,494,494,494,494,584,584,584,584,584,584,584,584,729,729,729,729,729,729,729,729,729,729,729,729,729,729,729,729,729,729,729,729,729,729,494,494,494,494,494,494,494,494,494,494,494,494,494,494,494,494,494,494,494,494,494,584,584,729,729,729,729,729,729,729,729,729,729,729,729,729,729,729,729,729,729,729,729,729,729,729,729,729,729,729,729,729,729,729,729,729,729,729,729,729,729,729,729,729,729,729,729,729,729,729,729,729,729,729,494,494,494,494,494,494,494,494,494,
494,494,494,494,494,584,584,584,584,729,729,729,729,729,729,729,729,729,729,729,729,729,729,729,729,729,729,729,729,729,729,729,729,729,729,729,729,494,494,494,494,494,494,494,494,494,494,494,494,494,494,494,494,494,494,494,494,494,584,729,729,729,729,729,729,729,729,729,729,729,729,729,729,729,729,729,729,729,729,729,729,729,729,729,729,729,729,729,729,729,729,729,729,729,729,729,729,729,729,729,729,729,729,729,729,729,729,729,729,729,729,494,494,494,494,494,494,494,494,494,
494,494,584,584,584,584,584,584,584,729,729,729,729,729,729,729,729,729,729,729,729,729,729,729,729,729,729,729,729,729,729,729,729,729,729,729,729,494,494,494,494,494,494,494,494,494,494,494,494,494,494,494,494,494,494,494,494,494,584,729,729,729,729,729,729,729,729,729,729,729,729,729,729,729,729,729,729,729,729,729,729,729,729,729,729,729,729,729,729,729,729,729,729,729,729,729,729,729,729,729,729,729,729,729,729,729,729,729,729,729,729,494,494,494,494,494,494,494,494,494,
494,494,584,584,584,584,584,729,729,729,729,729,729,729,729,729,729,729,729,729,729,729,729,729,729,729,729,729,729,729,729,729,729,729,729,494,494,494,494,494,494,494,494,494,494,494,494,494,494,494,494,494,494,494,494,494,494,494,729,729,729,729,729,729,729,729,729,729,729,729,729,729,729,729,729,729,729,729,729,729,729,729,729,729,729,729,729,729,729,729,729,729,729,729,729,729,729,729,729,729,729,729,729,729,729,729,729,729,729,729,729,494,494,494,494,494,494,494,494,494,
494,494,584,584,584,729,729,729,729,729,729,729,729,729,729,729,729,729,729,729,729,729,729,729,729,729,729,729,729,729,729,729,729,729,494,494,494,494,494,494,494,494,494,494,494,494,494,494,494,494,494,494,494,494,494,494,494,494,729,729,729,729,729,729,729,729,729,729,729,729,729,729,729,729,729,729,729,729,729,729,729,729,729,729,729,729,729,729,729,729,729,729,729,729,729,729,729,729,729,729,729,729,729,729,729,729,729,729,729,729,729,494,494,494,494,494,494,494,494,494,
494,494,729,729,729,729,729,729,729,729,729,729,729,729,729,729,729,729,729,729,729,729,729,729,729,729,729,729,729,729,729,729,729,729,494,494,494,494,494,494,494,494,494,494,494,494,494,494,494,494,494,494,494,494,494,494,494,494,729,729,729,729,729,729,729,729,729,729,729,729,729,729,729,729,729,729,729,729,729,729,729,729,729,729,729,729,729,729,729,729,729,729,729,729,729,729,729,729,729,729,729,729,729,729,729,729,729,729,729,729,729,494,494,494,494,494,494,494,494,494,
494,494,729,729,729,729,729,729,729,729,729,729,729,729,729,729,729,729,729,729,729,729,729,729,729,729,729,729,729,729,729,729,729,494,494,494,494,494,494,494,494,494,494,494,494,494,494,494,494,494,494,494,494,494,494,494,494,494,494,729,729,729,729,729,729,729,729,729,729,729,729,729,729,729,729,729,729,729,729,729,729,729,729,729,729,729,729,729,729,729,729,729,729,729,729,729,729,729,729,729,729,729,729,729,729,729,729,729,729,729,729,494,494,494,494,494,494,494,494,494,
494,494,729,729,729,729,729,729,729,729,729,729,729,729,729,729,729,729,729,729,729,729,729,729,729,729,729,729,729,729,729,729,494,494,494,494,494,494,494,494,494,494,494,494,494,494,494,494,494,494,494,494,494,494,494,494,494,494,494,494,729,729,729,729,729,729,729,729,729,729,729,729,729,729,729,729,729,729,729,729,729,729,729,729,729,729,729,729,729,729,729,729,729,729,729,729,729,729,729,729,729,729,729,729,729,729,729,729,729,729,729,494,494,494,494,494,494,494,494,494,
494,494,729,729,729,729,729,729,729,729,729,729,729,729,729,729,729,729,729,729,729,729,729,729,729,729,729,729,729,729,494,494,494,494,494,494,494,494,494,494,494,494,494,494,494,494,494,494,494,494,494,494,494,494,494,494,494,494,494,494,494,494,729,729,729,729,729,729,729,729,729,729,729,729,729,729,729,729,729,729,729,729,729,729,729,729,729,729,729,729,729,729,729,729,729,729,729,729,729,729,729,729,729,729,729,729,729,729,729,729,494,494,494,494,494,494,494,494,494,494,
494,494,729,729,729,729,729,729,729,729,729,729,729,729,729,729,729,729,729,729,729,729,729,729,729,729,729,729,729,494,494,494,494,494,494,494,494,494,494,494,494,494,494,494,494,494,494,494,494,494,494,494,494,494,494,494,494,494,494,494,494,494,494,729,729,729,729,729,729,729,729,729,729,729,729,729,729,729,729,729,729,729,729,729,729,729,729,729,729,729,729,729,729,729,729,729,729,729,729,729,729,729,729,729,729,729,729,729,729,494,494,494,494,494,494,494,494,494,494,494,
494,494,729,729,729,729,729,729,729,729,729,729,729,729,729,729,729,729,729,729,729,729,729,729,729,729,729,729,729,494,494,494,494,494,494,494,494,494,494,494,494,494,494,494,494,494,494,494,494,494,494,494,494,494,494,494,494,494,494,494,494,494,494,494,494,729,729,729,729,729,729,729,729,729,729,729,729,729,729,729,729,729,729,729,729,729,729,729,729,729,729,729,729,729,729,729,729,729,729,729,729,729,729,729,729,729,729,729,494,494,494,494,494,494,494,494,494,494,494,494,
494,494,494,494,729,729,729,729,729,729,729,729,729,729,729,729,729,729,729,729,729,729,729,729,729,729,729,729,494,494,494,494,494,494,494,494,494,494,494,494,494,494,494,494,494,494,494,494,494,494,494,494,494,494,494,494,494,494,494,494,494,494,494,494,494,494,494,729,729,729,729,729,729,729,729,729,729,729,729,729,729,729,729,729,729,729,729,729,729,729,729,729,729,729,729,729,729,729,729,729,729,729,729,729,729,729,494,494,494,494,494,494,494,494,494,494,494,494,494,494,
494,494,494,494,494,494,729,729,729,729,729,729,729,729,729,729,729,729,729,729,729,729,729,729,729,729,494,494,494,494,494,494,494,494,494,494,494,494,494,494,494,494,494,494,494,494,494,494,494,494,494,494,494,494,494,494,494,494,494,494,494,494,494,494,494,494,494,494,494,494,494,494,494,494,494,494,494,729,729,729,729,729,729,729,729,729,729,729,729,729,729,729,729,729,729,729,729,729,729,729,729,729,729,729,494,494,494,494,494,494,494,494,494,494,494,494,494,494,494,494,
494,494,494,494,494,494,494,494,729,729,729,729,729,729,729,729,729,729,729,729,729,729,729,494,494,494,494,494,494,494,494,494,494,494,494,494,494,494,494,494,494,494,494,494,494,494,494,494,494,494,494,494,494,494,494,494,494,494,494,494,494,494,494,494,494,494,494,494,494,494,494,494,494,494,494,494,494,494,494,494,494,494,494,494,494,494,494,494,494,494,494,494,494,494,494,494,494,494,494,494,494,494,494,494,494,494,494,494,494,494,494,494,494,494,494,494,494,494,494,494,
494,494,494,494,494,494,494,494,494,494,494,494,494,494,494,494,494,494,494,494,494,494,494,494,494,494,494,494,494,494,494,494,494,494,494,494,494,494,494,494,494,494,494,494,494,494,494,494,494,494,494,494,494,494,494,494,494,494,494,494,494,494,494,494,494,494,494,494,494,494,494,494,494,494,494,494,494,494,494,494,494,494,494,494,494,494,494,494,494,494,494,494,494,494,494,494,494,494,494,494,494,494,494,494,494,494,494,494,494,494,494,494,494,494,494,494,494,494,494,494,
494,494,494,494,494,494,494,494,494,494,494,494,494,494,494,494,494,494,494,494,494,494,494,494,494,494,494,494,494,494,494,494,494,494,494,494,494,494,494,494,494,494,494,494,494,494,494,494,494,494,494,494,494,494,494,494,494,494,494,494,494,494,494,494,494,494,494,494,494,494,494,494,494,494,494,494,494,494,494,494,494,494,494,494,494,494,494,494,494,494,494,494,494,494,494,494,494,494,494,494,494,494,494,494,494,494,494,494,494,494,494,494,494,494,494,494,494,494,494,494,
494,494,494,494,494,494,494,494,494,494,494,494,494,494,494,494,494,494,494,494,494,494,494,494,494,494,494,494,494,494,494,494,494,494,494,494,494,494,494,494,494,494,494,494,494,494,494,494,494,494,494,494,494,494,494,494,494,494,494,494,494,494,494,494,494,494,494,494,494,494,494,494,494,494,494,494,494,494,494,494,494,494,494,494,494,494,494,494,494,494,494,494,494,494,494,494,494,494,494,494,494,494,494,494,494,494,494,494,494,494,494,494,494,494,494,494,494,494,494,494,
494,494,494,494,494,494,494,494,494,494,494,494,494,494,494,494,494,494,494,494,494,494,494,494,494,494,494,494,494,494,494,494,494,494,494,494,494,494,494,494,494,494,494,494,494,494,494,494,494,494,494,494,494,494,494,494,494,494,494,494,494,494,494,494,494,494,494,494,494,494,494,494,494,494,494,494,494,494,494,494,494,494,494,494,494,494,494,494,494,494,494,494,494,494,494,494,494,494,494,494,494,494,494,494,494,494,494,494,494,494,494,494,494,494,494,494,494,494,494,494
</data>
 </layer>
</map>
