<?xml version="1.0" encoding="UTF-8"?>
<map version="1.10" tiledversion="1.11.2" orientation="orthogonal" renderorder="right-down" width="60" height="60" tilewidth="48" tileheight="48" infinite="0" nextlayerid="2" nextobjectid="1">
 <tileset firstgid="1" source="castle interiors, prefab samples.tsx"/>
 <tileset firstgid="225" source="iconic interiors.tsx"/>
 <tileset firstgid="288" source="DungeonTileset1.tsx"/>
 <tileset firstgid="351" source="DungeonTileset2.tsx"/>
 <layer id="1" name="Tile Layer 1" width="60" height="60">
  <data encoding="csv">
288,288,288,288,288,288,288,288,288,288,288,288,288,288,288,288,288,288,288,288,288,288,288,288,288,288,288,288,288,288,288,288,288,288,288,288,288,288,288,288,288,288,288,288,288,288,288,288,288,288,288,288,288,288,288,288,288,288,288,288,
288,288,288,288,288,288,288,288,288,288,288,288,288,288,288,288,288,288,288,288,288,288,288,288,288,288,288,288,288,288,288,288,288,288,288,288,288,288,288,288,288,288,288,288,288,288,288,288,288,288,288,288,288,288,288,288,288,288,288,288,
288,288,288,288,288,288,288,288,288,288,288,288,288,288,288,288,288,288,288,288,288,288,288,288,288,378,378,378,378,378,378,378,378,378,378,288,288,288,288,288,288,288,288,288,288,288,288,288,288,288,288,288,288,288,288,288,288,288,288,288,
288,288,288,288,288,288,288,288,288,288,288,288,288,288,288,288,288,288,288,288,288,378,378,378,378,378,378,378,378,378,378,378,378,378,378,378,378,378,378,288,288,288,288,288,288,288,288,288,288,288,288,288,288,288,288,288,288,288,288,288,
288,288,288,288,288,288,288,288,288,288,288,288,288,288,288,288,288,288,288,378,378,378,378,378,378,378,378,378,378,378,378,378,378,378,378,378,378,378,378,378,378,288,288,288,288,288,288,288,288,288,288,288,288,288,288,288,288,288,288,288,
288,288,288,288,288,288,288,288,288,288,288,288,288,288,288,288,288,378,378,378,378,378,378,378,378,523,523,523,523,523,523,523,523,523,523,378,378,378,378,378,378,378,378,288,288,288,288,288,288,288,288,288,288,288,288,288,288,288,288,288,
288,288,288,288,288,288,288,288,288,288,288,288,288,288,288,288,378,378,378,378,378,523,523,523,523,523,523,523,523,523,523,523,523,523,523,523,523,523,523,378,378,378,378,378,288,288,288,288,288,288,288,288,288,288,288,288,288,288,288,288,
288,288,288,288,288,288,288,288,288,288,288,288,288,288,378,378,378,378,378,523,523,523,523,523,523,523,523,523,523,523,523,523,523,523,523,523,523,523,523,523,523,378,378,378,378,378,288,288,288,288,288,288,288,288,288,288,288,288,288,288,
288,288,288,288,288,288,288,288,288,288,288,288,288,378,378,378,378,523,523,523,523,523,523,523,523,523,523,523,523,523,523,523,523,523,523,523,523,523,523,523,523,523,523,378,378,378,378,288,288,288,288,288,288,288,288,288,288,288,288,288,
288,288,288,288,288,288,288,288,288,288,288,288,378,378,378,378,523,523,523,523,523,523,523,523,523,523,523,523,523,523,523,523,523,523,523,523,523,523,523,523,523,523,523,523,378,378,378,378,288,288,288,288,288,288,288,288,288,288,288,288,
288,288,288,288,288,288,288,288,288,288,288,378,378,378,523,523,523,523,523,523,523,523,523,523,523,523,523,523,523,523,523,523,523,523,523,523,523,523,523,523,523,523,523,523,523,523,378,378,378,288,288,288,288,288,288,288,288,288,288,288,
288,288,288,288,288,288,288,288,288,288,378,378,378,523,523,523,523,523,523,523,523,523,523,523,523,523,523,523,523,523,523,523,523,523,523,523,523,523,523,523,523,523,523,523,523,523,523,378,378,378,288,288,288,288,288,288,288,288,288,288,
288,288,288,288,288,288,288,288,288,288,378,378,523,523,523,523,523,523,523,523,523,523,523,523,523,523,523,523,523,523,523,523,523,523,523,523,523,523,523,523,523,523,523,523,523,523,523,523,378,378,288,288,288,288,288,288,288,288,288,288,
288,288,288,288,288,288,288,288,288,378,378,523,523,523,523,523,523,523,523,523,523,523,523,523,523,523,523,523,523,523,523,523,523,523,523,523,523,523,523,523,523,523,523,523,523,523,523,523,523,378,378,288,288,288,288,288,288,288,288,288,
288,288,288,288,288,288,288,288,378,378,523,523,523,523,523,523,523,523,523,523,523,523,523,523,523,523,523,523,523,523,523,523,523,523,523,523,523,523,523,523,523,523,523,523,523,523,523,523,523,523,378,378,288,288,288,288,288,288,288,288,
288,288,288,288,288,288,288,288,378,378,523,523,523,523,523,523,523,523,523,523,523,523,523,523,523,523,523,523,523,523,523,523,523,523,523,523,523,523,523,523,523,523,523,523,523,523,523,523,523,523,378,378,288,288,288,288,288,288,288,288,
288,288,288,288,288,288,288,378,378,523,523,523,523,523,523,523,523,523,523,523,523,523,523,523,523,523,523,523,523,523,523,523,523,523,523,523,523,523,523,523,523,523,523,523,523,523,523,523,523,523,523,378,378,288,288,288,288,288,288,288,
288,288,288,288,288,288,288,378,523,523,523,523,523,523,523,523,523,523,523,523,523,523,523,523,523,523,523,523,523,523,523,523,523,523,523,523,523,523,523,523,523,523,523,523,523,523,523,523,523,523,523,523,378,288,288,288,288,288,288,288,
288,288,288,288,288,288,378,378,523,523,523,523,523,523,523,523,523,523,523,523,523,523,523,523,523,523,523,523,523,523,523,523,523,523,523,523,523,523,523,523,523,523,523,523,523,523,523,523,523,523,523,523,378,378,288,288,288,288,288,288,
288,288,288,288,288,288,378,523,523,523,523,523,523,523,523,523,523,523,523,523,523,523,523,523,523,523,523,523,523,523,523,523,523,523,523,523,523,523,523,523,523,523,523,523,523,523,523,523,523,523,523,523,523,378,288,288,288,288,288,288,
288,288,288,288,288,288,378,523,523,523,523,523,523,523,523,523,523,523,523,523,523,523,523,523,523,523,523,523,523,523,523,523,523,523,523,523,523,523,523,523,523,523,523,523,523,523,523,523,523,523,523,523,523,378,288,288,288,288,288,288,
288,288,288,288,288,288,523,523,523,523,523,523,523,523,523,523,523,523,523,523,523,523,523,523,523,523,523,523,523,523,523,523,523,523,523,523,523,523,523,523,523,523,523,523,523,523,523,523,523,523,523,523,523,523,288,288,288,288,288,288,
288,288,288,288,288,28,523,523,523,523,523,523,523,523,523,523,523,523,523,523,523,523,523,523,523,523,523,523,523,523,523,523,523,523,523,523,523,523,523,523,523,523,523,523,523,523,523,523,523,523,523,523,523,523,28,288,288,288,288,288,
288,288,288,288,288,28,523,523,523,523,523,523,523,523,523,523,523,523,523,523,523,523,523,523,523,523,523,523,523,523,523,523,523,523,523,523,523,523,523,523,523,523,523,523,523,523,523,523,523,523,523,523,523,523,28,288,288,288,288,288,
288,288,288,288,288,28,523,523,523,523,523,523,523,523,523,523,523,523,523,523,523,523,523,523,523,523,523,523,523,523,523,523,523,523,523,523,523,523,523,523,523,523,523,523,523,523,523,523,523,523,523,523,523,523,28,288,288,288,288,288,
288,288,288,288,288,523,523,523,523,523,523,523,523,523,523,523,523,523,523,523,523,523,523,523,523,523,523,523,523,523,523,523,523,523,523,523,523,523,523,523,523,523,523,523,523,523,523,523,523,523,523,523,523,523,523,288,288,288,288,288,
288,288,288,288,288,523,523,523,523,523,523,523,523,523,523,523,523,523,523,523,523,523,523,523,523,523,523,523,523,523,523,523,523,523,523,523,523,523,523,523,523,523,523,523,523,523,523,523,523,523,523,523,523,523,523,288,288,288,288,288,
288,288,288,288,288,523,523,523,523,523,523,523,523,523,523,523,523,523,523,523,523,523,523,523,523,523,523,523,523,523,523,523,523,523,523,523,523,523,523,523,523,523,523,523,523,523,523,523,523,523,523,523,523,523,523,288,288,288,288,288,
288,288,288,288,288,523,523,523,523,523,523,523,523,523,523,523,523,523,523,523,523,523,523,523,523,523,523,523,523,523,523,523,523,523,523,523,523,523,523,523,523,523,523,523,523,523,523,523,523,523,523,523,523,523,523,288,288,288,288,288,
288,288,288,288,288,523,523,523,523,523,523,523,523,523,523,523,523,523,523,523,523,523,523,523,523,523,523,523,523,523,523,523,523,523,523,523,523,523,523,523,523,523,523,523,523,523,523,523,523,523,523,523,523,523,523,288,288,288,288,288,
288,288,288,288,288,523,523,523,523,523,523,523,523,523,523,523,523,523,523,523,523,523,523,523,523,523,523,523,523,523,523,523,523,523,523,523,523,523,523,523,523,523,523,523,523,523,523,523,523,523,523,523,523,523,523,288,288,288,288,288,
288,288,288,288,288,523,523,523,523,523,523,523,523,523,523,523,523,523,523,523,523,523,523,523,523,523,523,523,523,523,523,523,523,523,523,523,523,523,523,523,523,523,523,523,523,523,523,523,523,523,523,523,523,523,523,288,288,288,288,288,
288,288,288,288,288,523,523,523,523,523,523,523,523,523,523,523,523,523,523,523,523,523,523,523,523,523,523,523,523,523,523,523,523,523,523,523,523,523,523,523,523,523,523,523,523,523,523,523,523,523,523,523,523,523,523,288,288,288,288,288,
288,288,288,288,288,523,523,523,523,523,523,523,523,523,523,523,523,523,523,523,523,523,523,523,523,523,523,523,523,523,523,523,523,523,523,523,523,523,523,523,523,523,523,523,523,523,523,523,523,523,523,523,523,523,523,288,288,288,288,288,
288,288,288,288,288,523,523,523,523,523,523,523,523,523,523,523,523,523,523,523,523,523,523,523,523,523,523,523,523,523,523,523,523,523,523,523,523,523,523,523,523,523,523,523,523,523,523,523,523,523,523,523,523,523,523,288,288,288,288,288,
288,288,288,288,288,288,523,523,523,523,523,523,523,523,523,523,523,523,523,523,523,523,523,523,523,523,523,523,523,523,523,523,523,523,523,523,523,523,523,523,523,523,523,523,523,523,523,523,523,523,523,523,523,523,288,288,288,288,288,288,
288,288,288,288,288,288,523,523,523,523,523,523,523,523,523,523,523,523,523,523,523,523,523,523,523,523,523,523,523,523,523,523,523,523,523,523,523,523,523,523,523,523,523,523,523,523,523,523,523,523,523,523,523,523,288,288,288,288,288,288,
288,288,288,288,288,288,523,523,523,523,523,523,523,523,523,523,523,523,523,523,523,523,523,523,523,523,523,523,523,523,523,523,523,523,523,523,523,523,523,523,523,523,523,523,523,523,523,523,523,523,523,523,523,523,288,288,288,288,288,288,
288,288,288,288,288,288,523,523,523,523,523,523,523,523,523,523,523,523,523,523,523,523,523,523,523,523,523,523,523,523,523,523,523,523,523,523,523,523,523,523,523,523,523,523,523,523,523,523,523,523,523,523,523,523,288,288,288,288,288,288,
288,288,288,288,288,288,288,523,523,523,523,523,523,523,523,523,523,523,523,523,523,523,523,523,523,523,523,523,523,523,523,523,523,523,523,523,523,523,523,523,523,523,523,523,523,523,523,523,523,523,523,523,523,288,288,288,288,288,288,288,
288,288,288,288,288,288,288,523,523,523,523,523,523,523,523,523,523,523,523,523,523,523,523,523,523,523,523,523,523,523,523,523,523,523,523,523,523,523,523,523,523,523,523,523,523,523,523,523,523,523,523,523,523,288,288,288,288,288,288,288,
288,288,288,288,288,288,288,288,523,523,523,523,523,523,523,523,523,523,523,523,523,523,523,523,523,523,523,523,523,523,523,523,523,523,523,523,523,523,523,523,523,523,523,523,523,523,523,523,523,523,523,523,288,288,288,288,288,288,288,288,
288,288,288,288,288,288,288,288,523,523,523,523,523,523,523,523,523,523,523,523,523,523,523,523,523,523,523,523,523,523,523,523,523,523,523,523,523,523,523,523,523,523,523,523,523,523,523,523,523,523,523,523,288,288,288,288,288,288,288,288,
288,288,288,288,288,288,288,288,288,523,523,523,523,523,523,523,523,523,523,523,523,523,523,523,523,523,523,523,523,523,523,523,523,523,523,523,523,523,523,523,523,523,523,523,523,523,523,523,523,523,523,288,288,288,288,288,288,288,288,288,
288,288,288,288,288,288,288,288,288,288,523,523,523,523,523,523,523,523,523,523,523,523,523,523,523,523,523,523,523,523,523,523,523,523,523,523,523,523,523,523,523,523,523,523,523,523,523,523,523,523,288,288,288,288,288,288,288,288,288,288,
288,288,288,288,288,288,288,288,288,288,523,523,523,523,523,523,523,523,523,523,523,523,523,523,523,523,523,523,523,523,523,523,523,523,523,523,523,523,523,523,523,523,523,523,523,523,523,523,523,523,288,288,288,288,288,288,288,288,288,288,
288,288,288,288,288,288,288,288,288,288,288,523,523,523,523,523,523,523,523,523,523,523,523,523,523,523,523,523,523,523,523,523,523,523,523,523,523,523,523,523,523,523,523,523,523,523,523,523,523,288,288,288,288,288,288,288,288,288,288,288,
288,288,288,288,288,288,288,288,288,288,288,288,523,523,523,523,523,523,523,523,523,523,523,523,523,523,523,523,523,523,523,523,523,523,523,523,523,523,523,523,523,523,523,523,523,523,523,523,288,288,288,288,288,288,288,288,288,288,288,288,
288,288,288,288,288,288,288,288,288,288,288,288,288,523,523,523,523,523,523,523,523,523,523,523,523,523,523,523,523,523,523,523,523,523,523,523,523,523,523,523,523,523,523,523,523,523,523,288,288,288,288,288,288,288,288,288,288,288,288,288,
288,288,288,288,288,288,288,288,288,288,288,288,288,288,523,523,523,523,523,523,523,523,523,523,523,523,523,523,523,523,523,523,523,523,523,523,523,523,523,523,523,523,523,523,523,523,288,288,288,288,288,288,288,288,288,288,288,288,288,288,
288,288,288,288,288,288,288,288,288,288,288,288,288,288,288,288,523,523,523,523,523,523,523,523,523,523,523,523,523,523,523,523,523,523,523,523,523,523,523,523,523,523,523,523,288,288,288,288,288,288,288,288,288,288,288,288,288,288,288,288,
288,288,288,288,288,288,288,288,288,288,288,288,288,288,288,288,288,523,523,523,523,523,523,523,523,523,523,523,523,523,523,523,523,523,523,523,523,523,523,523,523,523,523,288,288,288,288,288,288,288,288,288,288,288,288,288,288,288,288,288,
288,288,288,288,288,288,288,288,288,288,288,288,288,288,288,288,288,288,288,523,523,523,523,523,523,523,523,523,523,523,523,523,523,523,523,523,523,523,523,523,523,288,288,288,288,288,288,288,288,288,288,288,288,288,288,288,288,288,288,288,
288,288,288,288,288,288,288,288,288,288,288,288,288,288,288,288,288,288,288,288,288,523,523,523,523,523,523,523,523,523,523,523,523,523,523,523,523,523,523,288,288,288,288,288,288,288,288,288,288,288,288,288,288,288,288,288,288,288,288,288,
288,288,288,288,288,288,288,288,288,288,288,288,288,288,288,288,288,288,288,288,288,288,288,288,288,523,523,523,523,523,523,523,523,523,523,288,288,288,288,288,288,288,288,288,288,288,288,288,288,288,288,288,288,288,288,288,288,288,288,288,
288,288,288,288,288,288,288,288,288,288,288,288,288,288,288,288,288,288,288,288,288,288,288,288,288,288,288,288,288,288,288,288,288,288,288,288,288,288,288,288,288,288,288,288,288,288,288,288,288,288,288,288,288,288,288,288,288,288,288,288,
288,288,288,288,288,288,288,288,288,288,288,288,288,288,288,288,288,288,288,288,288,288,288,288,288,288,288,288,288,288,288,288,288,288,288,288,288,288,288,288,288,288,288,288,288,288,288,288,288,288,288,288,288,288,288,288,288,288,288,288,
288,288,288,288,288,288,288,288,288,288,288,288,288,288,288,288,288,288,288,288,288,288,288,288,288,288,288,288,288,288,288,288,288,288,288,288,288,288,288,288,288,288,288,288,288,288,288,288,288,288,288,288,288,288,288,288,288,288,288,288,
288,288,288,288,288,288,288,288,288,288,288,288,288,288,288,288,288,288,288,288,288,288,288,288,288,288,288,288,288,288,288,288,288,288,288,288,288,288,288,288,288,288,288,288,288,288,288,288,288,288,288,288,288,288,288,288,288,288,288,288,
288,288,288,288,288,288,288,288,288,288,288,288,288,288,288,288,288,288,288,288,288,288,288,288,288,288,288,288,288,288,288,288,288,288,288,288,288,288,288,288,288,288,288,288,288,288,288,288,288,288,288,288,288,288,288,288,288,288,288,288
</data>
 </layer>
</map>
